; G-Code generated by Simplify3D(R) Version 3.1.0
; sep. 30, 2016 at 1:09:37 FM
; Settings Summary
;   processName,PLA
;   applyToModels,Backplate
;   profileName,Wanhao Duplicator 4S - PLA
;   profileVersion,2016-09-06 22:26:53
;   baseProfile,Wanhao Duplicator 4/4X Dual
;   printMaterial,PLA
;   printQuality,High
;   printExtruders,Left Extruder Only
;   extruderName,Right Extruder,Left Extruder
;   extruderToolheadNumber,0,1
;   extruderDiameter,0.4,0.4
;   extruderAutoWidth,0,1
;   extruderWidth,0.4,0.48
;   extrusionMultiplier,0.9,0.9
;   extruderUseRetract,1,1
;   extruderRetractionDistance,1,2
;   extruderExtraRestartDistance,0,0
;   extruderRetractionZLift,0,0
;   extruderRetractionSpeed,1200,1200
;   extruderUseCoasting,0,0
;   extruderCoastingDistance,0.2,0.2
;   extruderUseWipe,0,0
;   extruderWipeDistance,5,5
;   primaryExtruder,1
;   layerHeight,0.1
;   topSolidLayers,6
;   bottomSolidLayers,6
;   perimeterOutlines,2
;   printPerimetersInsideOut,1
;   startPointOption,2
;   startPointOriginX,0
;   startPointOriginY,0
;   startPointOriginZ,0
;   sequentialIslands,0
;   spiralVaseMode,0
;   firstLayerHeightPercentage,90
;   firstLayerWidthPercentage,80
;   firstLayerUnderspeed,0.5
;   useRaft,0
;   raftExtruder,1
;   raftLayers,3
;   raftOffset,3
;   raftSeparationDistance,0.14
;   raftInfill,85
;   disableRaftBaseLayers,0
;   useSkirt,0
;   skirtExtruder,1
;   skirtLayers,2
;   skirtOutlines,2
;   skirtOffset,4
;   usePrimePillar,0
;   primePillarExtruder,999
;   primePillarWidth,12
;   primePillarLocation,7
;   primePillarSpeedMultiplier,1
;   useOozeShield,0
;   oozeShieldExtruder,999
;   oozeShieldOffset,2
;   oozeShieldOutlines,1
;   oozeShieldSidewallShape,1
;   oozeShieldSidewallAngle,30
;   oozeShieldSpeedMultiplier,1
;   infillExtruder,1
;   internalInfillPattern,Rectilinear
;   externalInfillPattern,Rectilinear
;   infillPercentage,20
;   outlineOverlapPercentage,20
;   infillExtrusionWidthPercentage,100
;   minInfillLength,5
;   infillLayerInterval,1
;   infillAngles,45,-45
;   overlapInfillAngles,0
;   generateSupport,0
;   supportExtruder,1
;   supportInfillPercentage,40
;   supportExtraInflation,0
;   denseSupportLayers,0
;   denseSupportInfillPercentage,70
;   supportLayerInterval,1
;   supportHorizontalPartOffset,0.3
;   supportUpperSeparationLayers,1
;   supportLowerSeparationLayers,1
;   supportType,0
;   supportGridSpacing,4
;   maxOverhangAngle,45
;   supportAngles,0
;   temperatureName,Right Extruder,Left Extruder,Heated Build Platform
;   temperatureNumber,0,1,0
;   temperatureSetpointCount,1,1,1
;   temperatureSetpointLayers,1,1,1
;   temperatureSetpointTemperatures,0,230,60
;   temperatureStabilizeAtStartup,0,0,0
;   temperatureHeatedBed,0,0,1
;   temperatureRelayBetweenLayers,0,0,0
;   temperatureRelayBetweenLoops,0,0,0
;   fanLayers,1,2
;   fanSpeeds,0,100
;   blipFanToFullPower,0
;   adjustSpeedForCooling,1
;   minSpeedLayerTime,15
;   minCoolingSpeedSlowdown,20
;   increaseFanForCooling,0
;   minFanLayerTime,45
;   maxCoolingFanSpeed,100
;   increaseFanForBridging,1
;   bridgingFanSpeed,100
;   use5D,1
;   relativeEdistances,1
;   allowEaxisZeroing,0
;   independentExtruderAxes,1
;   includeM10123,0
;   stickySupport,1
;   applyToolheadOffsets,0
;   gcodeXoffset,0
;   gcodeYoffset,0
;   gcodeZoffset,0
;   overrideMachineDefinition,1
;   machineTypeOverride,0
;   strokeXoverride,220
;   strokeYoverride,140
;   strokeZoverride,150
;   originOffsetXoverride,110
;   originOffsetYoverride,70
;   originOffsetZoverride,0
;   homeXdirOverride,1
;   homeYdirOverride,1
;   homeZdirOverride,-1
;   flipXoverride,1
;   flipYoverride,-1
;   flipZoverride,1
;   toolheadOffsets,0,0|34,0|0,0|0,0|0,0|0,0
;   overrideFirmwareConfiguration,1
;   firmwareTypeOverride,MakerBot/Sailfish Firmware
;   GPXconfigOverride,r1d
;   baudRateOverride,115200
;   overridePrinterModels,1
;   printerModelsOverride
;   startingGcode,; **** Duplicator 4 dual start.gcode ****,M73 P0 ; enable build progress,G162 X Y F3000 ; home XY maximum,G161 Z F1200 ; home Z minimum,G92 Z-5 ; set Z to -5,G1 Z0 ; move Z to 0,G161 Z F100 ; home Z slowly,M132 X Y Z A B ; recall home offsets,M135 T0 ; load right extruder offsets,G1 X-120 Y-70 Z30 F9000 ; move to wait position off table,G130 X20 Y20 Z20 A20 B20 ; lower stepper Vrefs while heating,M126 S[fan_speed_pwm],M140 S[bed0_temperature] T0,M134 T0 ; stabilize bed temperature,M104 S[extruder1_temperature] T1,M133 T1 ; stabilize extruder temperature,G130 X127 Y127 Z40 A127 B127 ; default stepper Vrefs,G92 A0 B0 ; zero extruders,M135 T1 ; load left extruder offsets,G1 Z0.4 ; position nozzle,G1 E25 F300 ; purge nozzle,G1 X-115 Y-65 Z0.15 F1200 ; slow wipe,G1 X-110 Y-60 Z0.5 F1200 ; lift,G92 A0 B0 ; zero extruders,M73 P1 ;@body (notify GPX body has started),; **** end of start.gcode ****
;   layerChangeGcode,
;   retractionGcode,
;   toolChangeGcode,
;   endingGcode,; **** Duplicator 4 dual end.gcode ****,M73 P100 ; end build progress,G1 Z150 F1000 ; send Z axis to bottom of machine,M140 S0 T0 ; cool down HBP,M104 S0 T0 ; cool down right extruder,M104 S0 T1 ; cool down left extruder,M127 ; stop blower fan,G162 X Y F3000 ; home XY maximum,M18 ; disable stepper,M72 P1 ; play Ta-Da song,; **** end of end.gcode ****
;   exportFileFormat,gcode
;   celebration,0
;   celebrationSong,Random Song
;   postProcessing,
;   defaultSpeed,3600
;   outlineUnderspeed,0.5
;   solidInfillUnderspeed,0.8
;   supportUnderspeed,0.8
;   rapidXYspeed,4200
;   rapidZspeed,1200
;   minBridgingArea,50
;   bridgingExtraInflation,0
;   bridgingExtrusionMultiplier,1
;   bridgingSpeedMultiplier,0.8
;   filamentDiameter,1.75
;   filamentPricePerKg,299
;   filamentDensity,1.25
;   useMinPrintHeight,0
;   minPrintHeight,0
;   useMaxPrintHeight,0
;   maxPrintHeight,0
;   useDiaphragm,0
;   diaphragmLayerInterval,20
;   robustSlicing,1
;   mergeAllIntoSolid,0
;   onlyRetractWhenCrossingOutline,1
;   retractBetweenLayers,1
;   useRetractionMinTravel,0
;   retractionMinTravel,3
;   retractWhileWiping,0
;   onlyWipeOutlines,1
;   avoidCrossingOutline,0
;   maxMovementDetourFactor,3
;   toolChangeRetractionDistance,12
;   toolChangeExtraRestartDistance,-0.5
;   toolChangeRetractionSpeed,600
;   allowThinWallGapFill,1
;   thinWallAllowedOverlapPercentage,10
;   horizontalSizeCompensation,0
G90
M83
; **** Duplicator 4 dual start.gcode ****
M73 P0 ; enable build progress
G162 X Y F3000 ; home XY maximum
G161 Z F1200 ; home Z minimum
G92 Z-5 ; set Z to -5
G1 Z0 ; move Z to 0
G161 Z F100 ; home Z slowly
M132 X Y Z A B ; recall home offsets
M135 T0 ; load right extruder offsets
G1 X-120 Y-70 Z30 F9000 ; move to wait position off table
G130 X20 Y20 Z20 A20 B20 ; lower stepper Vrefs while heating
M127
M140 S60 T0
M134 T0 ; stabilize bed temperature
M104 S230 T1
M133 T1 ; stabilize extruder temperature
G130 X127 Y127 Z40 A127 B127 ; default stepper Vrefs
G92 A0 B0 ; zero extruders
M135 T1 ; load left extruder offsets
G1 Z0.4 ; position nozzle
G1 E25 F300 ; purge nozzle
G1 X-115 Y-65 Z0.15 F1200 ; slow wipe
G1 X-110 Y-60 Z0.5 F1200 ; lift
G92 A0 B0 ; zero extruders
M73 P1 ;@body (notify GPX body has started)
; **** end of start.gcode ****
G1 E-2.0000 F1200
G1 Z0.090 F1200
; layer 1, Z = 0.09
M135 T1
; tool H0.100 W0.384
; inner perimeter
G1 X-42.583 Y-6.072 F4200
G1 E2.0000 F360
G1 X-32.569 Y-42.424 E0.5418 F1350
G1 X32.583 Y-42.424 E0.9361
G1 X43.446 Y-6.078 E0.5451
G1 X44.399 Y42.424 E0.6970
G1 X-44.389 Y42.424 E1.2757
G1 X-42.583 Y-6.072 E0.6973
; outer perimeter
G1 X-42.965 Y-6.131 F4200
G1 X-32.862 Y-42.808 E0.5466 F900
G1 X32.869 Y-42.808 E0.9444
G1 X43.829 Y-6.138 E0.5499
G1 X44.791 Y42.808 E0.7034
G1 X-44.787 Y42.808 E1.2871
G1 X-42.965 Y-6.131 E0.7037
; inner perimeter
G1 X-36.764 Y-5.175 F4200
G1 X-38.319 Y36.576 E0.6003 F1350
G1 X38.435 Y36.576 E1.1028
G1 X37.615 Y-5.166 E0.5999
G1 X28.227 Y-36.576 E0.4710
G1 X-28.114 Y-36.576 E0.8095
G1 X-36.764 Y-5.175 E0.4680
; outer perimeter
G1 X-36.382 Y-5.116 F4200
G1 X-37.920 Y36.192 E0.5939 F900
G1 X38.044 Y36.192 E1.0915
G1 X37.232 Y-5.107 E0.5935
G1 X27.941 Y-36.192 E0.4662
G1 X-27.822 Y-36.192 E0.8012
G1 X-36.382 Y-5.116 E0.4631
; solid layer
G1 X-38.059 Y36.883 F4200
G1 X-32.825 Y42.117 E0.1063 F1440
G1 X-32.282 Y42.117 E0.0078
G1 X-37.516 Y36.883 E0.1063
G1 X-36.973 Y36.883 E0.0078
G1 X-31.739 Y42.117 E0.1063
G1 X-31.196 Y42.117 E0.0078
G1 X-36.430 Y36.883 E0.1063
G1 X-35.887 Y36.883 E0.0078
G1 X-30.653 Y42.117 E0.1063
G1 X-30.110 Y42.117 E0.0078
G1 X-35.344 Y36.883 E0.1063
G1 X-34.800 Y36.883 E0.0078
G1 X-29.567 Y42.117 E0.1063
G1 X-29.024 Y42.117 E0.0078
G1 X-34.257 Y36.883 E0.1063
G1 X-33.714 Y36.883 E0.0078
G1 X-28.481 Y42.117 E0.1063
G1 X-27.938 Y42.117 E0.0078
G1 X-33.171 Y36.883 E0.1063
G1 X-32.628 Y36.883 E0.0078
G1 X-27.395 Y42.117 E0.1063
G1 X-26.852 Y42.117 E0.0078
G1 X-32.085 Y36.883 E0.1063
G1 X-31.542 Y36.883 E0.0078
G1 X-26.308 Y42.117 E0.1063
G1 X-25.765 Y42.117 E0.0078
G1 X-30.999 Y36.883 E0.1063
G1 X-30.456 Y36.883 E0.0078
G1 X-25.222 Y42.117 E0.1063
G1 X-24.679 Y42.117 E0.0078
G1 X-29.913 Y36.883 E0.1063
G1 X-29.370 Y36.883 E0.0078
G1 X-24.136 Y42.117 E0.1063
G1 X-23.593 Y42.117 E0.0078
G1 X-28.827 Y36.883 E0.1063
G1 X-28.284 Y36.883 E0.0078
G1 X-23.050 Y42.117 E0.1063
G1 X-22.507 Y42.117 E0.0078
G1 X-27.741 Y36.883 E0.1063
G1 X-27.198 Y36.883 E0.0078
G1 X-21.964 Y42.117 E0.1063
G1 X-21.421 Y42.117 E0.0078
G1 X-26.655 Y36.883 E0.1063
G1 X-26.112 Y36.883 E0.0078
G1 X-20.878 Y42.117 E0.1063
G1 X-20.335 Y42.117 E0.0078
G1 X-25.568 Y36.883 E0.1063
G1 X-25.025 Y36.883 E0.0078
G1 X-19.792 Y42.117 E0.1063
G1 X-19.249 Y42.117 E0.0078
G1 X-24.482 Y36.883 E0.1063
G1 X-23.939 Y36.883 E0.0078
G1 X-18.706 Y42.117 E0.1063
G1 X-18.163 Y42.117 E0.0078
G1 X-23.396 Y36.883 E0.1063
G1 X-22.853 Y36.883 E0.0078
G1 X-17.620 Y42.117 E0.1063
G1 X-17.077 Y42.117 E0.0078
G1 X-22.310 Y36.883 E0.1063
G1 X-21.767 Y36.883 E0.0078
G1 X-16.533 Y42.117 E0.1063
G1 X-15.990 Y42.117 E0.0078
G1 X-21.224 Y36.883 E0.1063
G1 X-20.681 Y36.883 E0.0078
G1 X-15.447 Y42.117 E0.1063
G1 X-14.904 Y42.117 E0.0078
G1 X-20.138 Y36.883 E0.1063
G1 X-19.595 Y36.883 E0.0078
G1 X-14.361 Y42.117 E0.1063
G1 X-13.818 Y42.117 E0.0078
G1 X-19.052 Y36.883 E0.1063
G1 X-18.509 Y36.883 E0.0078
G1 X-13.275 Y42.117 E0.1063
G1 X-12.732 Y42.117 E0.0078
G1 X-17.966 Y36.883 E0.1063
G1 X-17.423 Y36.883 E0.0078
G1 X-12.189 Y42.117 E0.1063
G1 X-11.646 Y42.117 E0.0078
G1 X-16.880 Y36.883 E0.1063
G1 X-16.336 Y36.883 E0.0078
G1 X-11.103 Y42.117 E0.1063
G1 X-10.560 Y42.117 E0.0078
G1 X-15.793 Y36.883 E0.1063
G1 X-15.250 Y36.883 E0.0078
G1 X-10.017 Y42.117 E0.1063
G1 X-9.474 Y42.117 E0.0078
G1 X-14.707 Y36.883 E0.1063
G1 X-14.164 Y36.883 E0.0078
G1 X-8.931 Y42.117 E0.1063
G1 X-8.388 Y42.117 E0.0078
G1 X-13.621 Y36.883 E0.1063
G1 X-13.078 Y36.883 E0.0078
G1 X-7.845 Y42.117 E0.1063
G1 X-7.301 Y42.117 E0.0078
G1 X-12.535 Y36.883 E0.1063
G1 X-11.992 Y36.883 E0.0078
G1 X-6.758 Y42.117 E0.1063
G1 X-6.215 Y42.117 E0.0078
G1 X-11.449 Y36.883 E0.1063
G1 X-10.906 Y36.883 E0.0078
G1 X-5.672 Y42.117 E0.1063
G1 X-5.129 Y42.117 E0.0078
G1 X-10.363 Y36.883 E0.1063
G1 X-9.820 Y36.883 E0.0078
G1 X-4.586 Y42.117 E0.1063
G1 X-4.043 Y42.117 E0.0078
G1 X-9.277 Y36.883 E0.1063
G1 X-8.734 Y36.883 E0.0078
G1 X-3.500 Y42.117 E0.1063
G1 X-2.957 Y42.117 E0.0078
G1 X-8.191 Y36.883 E0.1063
G1 X-7.648 Y36.883 E0.0078
G1 X-2.414 Y42.117 E0.1063
G1 X-1.871 Y42.117 E0.0078
G1 X-7.104 Y36.883 E0.1063
G1 X-6.561 Y36.883 E0.0078
G1 X-1.328 Y42.117 E0.1063
G1 X-0.785 Y42.117 E0.0078
G1 X-6.018 Y36.883 E0.1063
G1 X-5.475 Y36.883 E0.0078
G1 X-0.242 Y42.117 E0.1063
G1 X0.301 Y42.117 E0.0078
G1 X-4.932 Y36.883 E0.1063
G1 X-4.389 Y36.883 E0.0078
G1 X0.844 Y42.117 E0.1063
G1 X1.387 Y42.117 E0.0078
G1 X-3.846 Y36.883 E0.1063
G1 X-3.303 Y36.883 E0.0078
G1 X1.931 Y42.117 E0.1063
G1 X2.474 Y42.117 E0.0078
G1 X-2.760 Y36.883 E0.1063
G1 X-2.217 Y36.883 E0.0078
G1 X3.017 Y42.117 E0.1063
G1 X3.560 Y42.117 E0.0078
G1 X-1.674 Y36.883 E0.1063
G1 X-1.131 Y36.883 E0.0078
G1 X4.103 Y42.117 E0.1063
G1 X4.646 Y42.117 E0.0078
G1 X-0.588 Y36.883 E0.1063
G1 X-0.045 Y36.883 E0.0078
G1 X5.189 Y42.117 E0.1063
G1 X5.732 Y42.117 E0.0078
G1 X0.498 Y36.883 E0.1063
G1 X1.041 Y36.883 E0.0078
G1 X6.275 Y42.117 E0.1063
G1 X6.818 Y42.117 E0.0078
G1 X1.584 Y36.883 E0.1063
G1 X2.127 Y36.883 E0.0078
G1 X7.361 Y42.117 E0.1063
G1 X7.904 Y42.117 E0.0078
G1 X2.671 Y36.883 E0.1063
G1 X3.214 Y36.883 E0.0078
G1 X8.447 Y42.117 E0.1063
G1 X8.990 Y42.117 E0.0078
G1 X3.757 Y36.883 E0.1063
G1 X4.300 Y36.883 E0.0078
G1 X9.533 Y42.117 E0.1063
G1 X10.076 Y42.117 E0.0078
G1 X4.843 Y36.883 E0.1063
G1 X5.386 Y36.883 E0.0078
G1 X10.619 Y42.117 E0.1063
G1 X11.163 Y42.117 E0.0078
G1 X5.929 Y36.883 E0.1063
G1 X6.472 Y36.883 E0.0078
G1 X11.706 Y42.117 E0.1063
G1 X12.249 Y42.117 E0.0078
G1 X7.015 Y36.883 E0.1063
G1 X7.558 Y36.883 E0.0078
G1 X12.792 Y42.117 E0.1063
G1 X13.335 Y42.117 E0.0078
G1 X8.101 Y36.883 E0.1063
G1 X8.644 Y36.883 E0.0078
G1 X13.878 Y42.117 E0.1063
G1 X14.421 Y42.117 E0.0078
G1 X9.187 Y36.883 E0.1063
G1 X9.730 Y36.883 E0.0078
G1 X14.964 Y42.117 E0.1063
G1 X15.507 Y42.117 E0.0078
G1 X10.273 Y36.883 E0.1063
G1 X10.816 Y36.883 E0.0078
G1 X16.050 Y42.117 E0.1063
G1 X16.593 Y42.117 E0.0078
G1 X11.359 Y36.883 E0.1063
G1 X11.903 Y36.883 E0.0078
G1 X17.136 Y42.117 E0.1063
G1 X17.679 Y42.117 E0.0078
G1 X12.446 Y36.883 E0.1063
G1 X12.989 Y36.883 E0.0078
G1 X18.222 Y42.117 E0.1063
G1 X18.765 Y42.117 E0.0078
G1 X13.532 Y36.883 E0.1063
G1 X14.075 Y36.883 E0.0078
G1 X19.308 Y42.117 E0.1063
G1 X19.851 Y42.117 E0.0078
G1 X14.618 Y36.883 E0.1063
G1 X15.161 Y36.883 E0.0078
G1 X20.394 Y42.117 E0.1063
G1 X20.938 Y42.117 E0.0078
G1 X15.704 Y36.883 E0.1063
G1 X16.247 Y36.883 E0.0078
G1 X21.481 Y42.117 E0.1063
G1 X22.024 Y42.117 E0.0078
G1 X16.790 Y36.883 E0.1063
G1 X17.333 Y36.883 E0.0078
G1 X22.567 Y42.117 E0.1063
G1 X23.110 Y42.117 E0.0078
G1 X17.876 Y36.883 E0.1063
G1 X18.419 Y36.883 E0.0078
G1 X23.653 Y42.117 E0.1063
G1 X24.196 Y42.117 E0.0078
G1 X18.962 Y36.883 E0.1063
G1 X19.505 Y36.883 E0.0078
G1 X24.739 Y42.117 E0.1063
G1 X25.282 Y42.117 E0.0078
G1 X20.048 Y36.883 E0.1063
G1 X20.591 Y36.883 E0.0078
G1 X25.825 Y42.117 E0.1063
G1 X26.368 Y42.117 E0.0078
G1 X21.135 Y36.883 E0.1063
G1 X21.678 Y36.883 E0.0078
G1 X26.911 Y42.117 E0.1063
G1 X27.454 Y42.117 E0.0078
G1 X22.221 Y36.883 E0.1063
G1 X22.764 Y36.883 E0.0078
G1 X27.997 Y42.117 E0.1063
G1 X28.540 Y42.117 E0.0078
G1 X23.307 Y36.883 E0.1063
G1 X23.850 Y36.883 E0.0078
G1 X29.083 Y42.117 E0.1063
G1 X29.626 Y42.117 E0.0078
G1 X24.393 Y36.883 E0.1063
G1 X24.936 Y36.883 E0.0078
G1 X30.170 Y42.117 E0.1063
G1 X30.713 Y42.117 E0.0078
G1 X25.479 Y36.883 E0.1063
G1 X26.022 Y36.883 E0.0078
G1 X31.256 Y42.117 E0.1063
G1 X31.799 Y42.117 E0.0078
G1 X26.565 Y36.883 E0.1063
G1 X27.108 Y36.883 E0.0078
G1 X32.342 Y42.117 E0.1063
G1 X32.885 Y42.117 E0.0078
G1 X27.651 Y36.883 E0.1063
G1 X28.194 Y36.883 E0.0078
G1 X33.428 Y42.117 E0.1063
G1 X33.971 Y42.117 E0.0078
G1 X28.737 Y36.883 E0.1063
G1 X29.280 Y36.883 E0.0078
G1 X34.514 Y42.117 E0.1063
G1 X35.057 Y42.117 E0.0078
G1 X29.823 Y36.883 E0.1063
G1 X30.367 Y36.883 E0.0078
G1 X35.600 Y42.117 E0.1063
G1 X36.143 Y42.117 E0.0078
G1 X30.910 Y36.883 E0.1063
G1 X31.453 Y36.883 E0.0078
G1 X36.686 Y42.117 E0.1063
G1 X37.229 Y42.117 E0.0078
G1 X31.996 Y36.883 E0.1063
G1 X32.539 Y36.883 E0.0078
G1 X37.772 Y42.117 E0.1063
G1 X38.315 Y42.117 E0.0078
G1 X33.082 Y36.883 E0.1063
G1 X33.625 Y36.883 E0.0078
G1 X38.858 Y42.117 E0.1063
G1 X39.402 Y42.117 E0.0078
G1 X34.168 Y36.883 E0.1063
G1 X34.711 Y36.883 E0.0078
G1 X39.945 Y42.117 E0.1063
G1 X40.488 Y42.117 E0.0078
G1 X35.254 Y36.883 E0.1063
G1 X35.797 Y36.883 E0.0078
G1 X41.031 Y42.117 E0.1063
G1 X41.574 Y42.117 E0.0078
G1 X36.340 Y36.883 E0.1063
G1 X36.883 Y36.883 E0.0078
G1 X42.117 Y42.117 E0.1063
G1 X42.660 Y42.117 E0.0078
G1 X37.426 Y36.883 E0.1063
G1 X37.969 Y36.883 E0.0078
G1 X43.203 Y42.117 E0.1063
G1 X43.746 Y42.117 E0.0078
G1 X38.512 Y36.883 E0.1063
G1 X38.748 Y36.883 E0.0034
G1 X38.742 Y36.570 E0.0045
G1 X44.082 Y41.910 E0.1085
G1 X44.071 Y41.356 E0.0080
