; G-Code generated by Simplify3D(R) Version 3.1.0
; sep. 29, 2016 at 9:13:35 EM
; Settings Summary
;   processName,PLA
;   applyToModels,Front
;   profileName,Wanhao Duplicator 4S - PLA (modified)
;   profileVersion,2016-09-06 22:26:53
;   baseProfile,Wanhao Duplicator 4/4X Dual
;   printMaterial,PLA
;   printQuality,High
;   printExtruders,Left Extruder Only
;   extruderName,Right Extruder,Left Extruder
;   extruderToolheadNumber,0,1
;   extruderDiameter,0.4,0.4
;   extruderAutoWidth,0,1
;   extruderWidth,0.4,0.48
;   extrusionMultiplier,0.9,0.9
;   extruderUseRetract,1,1
;   extruderRetractionDistance,1,2
;   extruderExtraRestartDistance,0,0
;   extruderRetractionZLift,0,0
;   extruderRetractionSpeed,1200,1200
;   extruderUseCoasting,0,0
;   extruderCoastingDistance,0.2,0.2
;   extruderUseWipe,0,0
;   extruderWipeDistance,5,5
;   primaryExtruder,1
;   layerHeight,0.1
;   topSolidLayers,8
;   bottomSolidLayers,8
;   perimeterOutlines,2
;   printPerimetersInsideOut,1
;   startPointOption,2
;   startPointOriginX,0
;   startPointOriginY,0
;   startPointOriginZ,0
;   sequentialIslands,0
;   spiralVaseMode,0
;   firstLayerHeightPercentage,90
;   firstLayerWidthPercentage,100
;   firstLayerUnderspeed,0.5
;   useRaft,0
;   raftExtruder,1
;   raftLayers,3
;   raftOffset,3
;   raftSeparationDistance,0.14
;   raftInfill,85
;   disableRaftBaseLayers,0
;   useSkirt,0
;   skirtExtruder,1
;   skirtLayers,2
;   skirtOutlines,2
;   skirtOffset,4
;   usePrimePillar,0
;   primePillarExtruder,999
;   primePillarWidth,12
;   primePillarLocation,7
;   primePillarSpeedMultiplier,1
;   useOozeShield,0
;   oozeShieldExtruder,999
;   oozeShieldOffset,2
;   oozeShieldOutlines,1
;   oozeShieldSidewallShape,1
;   oozeShieldSidewallAngle,30
;   oozeShieldSpeedMultiplier,1
;   infillExtruder,1
;   internalInfillPattern,Rectilinear
;   externalInfillPattern,Rectilinear
;   infillPercentage,20
;   outlineOverlapPercentage,20
;   infillExtrusionWidthPercentage,100
;   minInfillLength,5
;   infillLayerInterval,1
;   infillAngles,45,-45
;   overlapInfillAngles,0
;   generateSupport,0
;   supportExtruder,1
;   supportInfillPercentage,40
;   supportExtraInflation,0
;   denseSupportLayers,0
;   denseSupportInfillPercentage,70
;   supportLayerInterval,1
;   supportHorizontalPartOffset,0.3
;   supportUpperSeparationLayers,1
;   supportLowerSeparationLayers,1
;   supportType,0
;   supportGridSpacing,4
;   maxOverhangAngle,45
;   supportAngles,0
;   temperatureName,Right Extruder,Left Extruder,Heated Build Platform
;   temperatureNumber,0,1,0
;   temperatureSetpointCount,1,1,1
;   temperatureSetpointLayers,1,1,1
;   temperatureSetpointTemperatures,0,230,60
;   temperatureStabilizeAtStartup,0,0,0
;   temperatureHeatedBed,0,0,1
;   temperatureRelayBetweenLayers,0,0,0
;   temperatureRelayBetweenLoops,0,0,0
;   fanLayers,1,2
;   fanSpeeds,0,100
;   blipFanToFullPower,0
;   adjustSpeedForCooling,1
;   minSpeedLayerTime,15
;   minCoolingSpeedSlowdown,20
;   increaseFanForCooling,0
;   minFanLayerTime,45
;   maxCoolingFanSpeed,100
;   increaseFanForBridging,1
;   bridgingFanSpeed,100
;   use5D,1
;   relativeEdistances,1
;   allowEaxisZeroing,0
;   independentExtruderAxes,1
;   includeM10123,0
;   stickySupport,1
;   applyToolheadOffsets,0
;   gcodeXoffset,0
;   gcodeYoffset,0
;   gcodeZoffset,0
;   overrideMachineDefinition,1
;   machineTypeOverride,0
;   strokeXoverride,220
;   strokeYoverride,140
;   strokeZoverride,150
;   originOffsetXoverride,110
;   originOffsetYoverride,70
;   originOffsetZoverride,0
;   homeXdirOverride,1
;   homeYdirOverride,1
;   homeZdirOverride,-1
;   flipXoverride,1
;   flipYoverride,-1
;   flipZoverride,1
;   toolheadOffsets,0,0|34,0|0,0|0,0|0,0|0,0
;   overrideFirmwareConfiguration,1
;   firmwareTypeOverride,MakerBot/Sailfish Firmware
;   GPXconfigOverride,r1d
;   baudRateOverride,115200
;   overridePrinterModels,1
;   printerModelsOverride
;   startingGcode,; **** Duplicator 4 dual start.gcode ****,M73 P0 ; enable build progress,G162 X Y F3000 ; home XY maximum,G161 Z F1200 ; home Z minimum,G92 Z-5 ; set Z to -5,G1 Z0 ; move Z to 0,G161 Z F100 ; home Z slowly,M132 X Y Z A B ; recall home offsets,M135 T0 ; load right extruder offsets,G1 X-120 Y-70 Z30 F9000 ; move to wait position off table,G130 X20 Y20 Z20 A20 B20 ; lower stepper Vrefs while heating,M126 S[fan_speed_pwm],M140 S[bed0_temperature] T0,M134 T0 ; stabilize bed temperature,M104 S[extruder1_temperature] T1,M133 T1 ; stabilize extruder temperature,G130 X127 Y127 Z40 A127 B127 ; default stepper Vrefs,G92 A0 B0 ; zero extruders,M135 T1 ; load left extruder offsets,G1 Z0.4 ; position nozzle,G1 E25 F300 ; purge nozzle,G1 X-115 Y-65 Z0.15 F1200 ; slow wipe,G1 X-110 Y-60 Z0.5 F1200 ; lift,G92 A0 B0 ; zero extruders,M73 P1 ;@body (notify GPX body has started),; **** end of start.gcode ****
;   layerChangeGcode,
;   retractionGcode,
;   toolChangeGcode,
;   endingGcode,; **** Duplicator 4 dual end.gcode ****,M73 P100 ; end build progress,G1 Z150 F1000 ; send Z axis to bottom of machine,M140 S0 T0 ; cool down HBP,M104 S0 T0 ; cool down right extruder,M104 S0 T1 ; cool down left extruder,M127 ; stop blower fan,G162 X Y F3000 ; home XY maximum,M18 ; disable stepper,M72 P1 ; play Ta-Da song,; **** end of end.gcode ****
;   exportFileFormat,gcode
;   celebration,0
;   celebrationSong,Random Song
;   postProcessing,
;   defaultSpeed,3600
;   outlineUnderspeed,0.5
;   solidInfillUnderspeed,0.8
;   supportUnderspeed,0.8
;   rapidXYspeed,4200
;   rapidZspeed,1200
;   minBridgingArea,50
;   bridgingExtraInflation,0
;   bridgingExtrusionMultiplier,1
;   bridgingSpeedMultiplier,0.8
;   filamentDiameter,1.75
;   filamentPricePerKg,299
;   filamentDensity,1.25
;   useMinPrintHeight,0
;   minPrintHeight,0
;   useMaxPrintHeight,0
;   maxPrintHeight,0
;   useDiaphragm,0
;   diaphragmLayerInterval,20
;   robustSlicing,1
;   mergeAllIntoSolid,0
;   onlyRetractWhenCrossingOutline,1
;   retractBetweenLayers,1
;   useRetractionMinTravel,0
;   retractionMinTravel,3
;   retractWhileWiping,0
;   onlyWipeOutlines,1
;   avoidCrossingOutline,0
;   maxMovementDetourFactor,3
;   toolChangeRetractionDistance,12
;   toolChangeExtraRestartDistance,-0.5
;   toolChangeRetractionSpeed,600
;   allowThinWallGapFill,1
;   thinWallAllowedOverlapPercentage,10
;   horizontalSizeCompensation,0
G90
M83
; **** Duplicator 4 dual start.gcode ****
M73 P0 ; enable build progress
G162 X Y F3000 ; home XY maximum
G161 Z F1200 ; home Z minimum
G92 Z-5 ; set Z to -5
G1 Z0 ; move Z to 0
G161 Z F100 ; home Z slowly
M132 X Y Z A B ; recall home offsets
M135 T0 ; load right extruder offsets
G1 X-120 Y-70 Z30 F9000 ; move to wait position off table
G130 X20 Y20 Z20 A20 B20 ; lower stepper Vrefs while heating
M127
M140 S60 T0
M134 T0 ; stabilize bed temperature
M104 S230 T1
M133 T1 ; stabilize extruder temperature
G130 X127 Y127 Z40 A127 B127 ; default stepper Vrefs
G92 A0 B0 ; zero extruders
M135 T1 ; load left extruder offsets
G1 Z0.4 ; position nozzle
G1 E25 F300 ; purge nozzle
G1 X-115 Y-65 Z0.15 F1200 ; slow wipe
G1 X-110 Y-60 Z0.5 F1200 ; lift
G92 A0 B0 ; zero extruders
M73 P1 ;@body (notify GPX body has started)
; **** end of start.gcode ****
G1 E-2.0000 F1200
G1 Z0.090 F1200
; layer 1, Z = 0.09
M135 T1
; tool H0.100 W0.480
; inner perimeter
G1 X-42.439 Y6.050 F4200
G1 E2.0000 F360
G1 X-44.239 Y-42.280 E0.8686 F1350
G1 X44.252 Y-42.280 E1.5893
G1 X43.302 Y6.055 E0.8683
G1 X32.475 Y42.280 E0.6790
G1 X-32.459 Y42.280 E1.1663
G1 X-42.439 Y6.050 E0.6749
; outer perimeter
G1 X-42.916 Y6.123 F4200
G1 X-44.737 Y-42.760 E0.8786 F900
G1 X44.741 Y-42.760 E1.6071
G1 X43.781 Y6.130 E0.8783
G1 X32.833 Y42.760 E0.6866
G1 X-32.825 Y42.760 E1.1792
G1 X-42.916 Y6.123 E0.6825
; solid layer
G1 X-32.194 Y41.798 F4200
G1 X-32.096 Y41.896 E0.0025 F1440
G1 X-31.417 Y41.896 E0.0122
G1 X-32.452 Y40.861 E0.0263
G1 X-32.710 Y39.924 E0.0175
G1 X-30.738 Y41.896 E0.0501
G1 X-30.060 Y41.896 E0.0122
G1 X-32.968 Y38.987 E0.0739
G1 X-33.226 Y38.050 E0.0175
G1 X-29.381 Y41.896 E0.0977
G1 X-28.702 Y41.896 E0.0122
G1 X-33.484 Y37.113 E0.1215
G1 X-33.742 Y36.176 E0.0175
G1 X-28.023 Y41.896 E0.1453
G1 X-27.344 Y41.896 E0.0122
G1 X-34.000 Y35.240 E0.1691
G1 X-34.258 Y34.303 E0.0175
G1 X-26.665 Y41.896 E0.1929
G1 X-25.987 Y41.896 E0.0122
G1 X-34.516 Y33.366 E0.2167
G1 X-34.774 Y32.429 E0.0175
G1 X-25.308 Y41.896 E0.2405
G1 X-24.629 Y41.896 E0.0122
G1 X-35.033 Y31.492 E0.2642
G1 X-35.291 Y30.555 E0.0175
G1 X-23.950 Y41.896 E0.2880
G1 X-23.271 Y41.896 E0.0122
G1 X-35.549 Y29.618 E0.3118
G1 X-35.807 Y28.681 E0.0175
G1 X-22.593 Y41.896 E0.3356
G1 X-21.914 Y41.896 E0.0122
G1 X-36.065 Y27.745 E0.3594
G1 X-36.323 Y26.808 E0.0175
G1 X-21.235 Y41.896 E0.3832
G1 X-20.556 Y41.896 E0.0122
G1 X-36.581 Y25.871 E0.4070
G1 X-36.839 Y24.934 E0.0175
G1 X-19.877 Y41.896 E0.4308
G1 X-19.198 Y41.896 E0.0122
G1 X-37.097 Y23.997 E0.4546
G1 X-37.355 Y23.060 E0.0175
G1 X-18.520 Y41.896 E0.4784
G1 X-17.841 Y41.896 E0.0122
G1 X-37.613 Y22.123 E0.5022
G1 X-37.871 Y21.186 E0.0175
G1 X-17.162 Y41.896 E0.5260
G1 X-16.483 Y41.896 E0.0122
G1 X-38.129 Y20.249 E0.5498
G1 X-38.387 Y19.313 E0.0175
G1 X-15.804 Y41.896 E0.5736
G1 X-15.126 Y41.896 E0.0122
G1 X-38.645 Y18.376 E0.5974
G1 X-38.903 Y17.439 E0.0175
G1 X-14.447 Y41.896 E0.6212
G1 X-13.768 Y41.896 E0.0122
G1 X-39.162 Y16.502 E0.6450
G1 X-39.420 Y15.565 E0.0175
G1 X-13.089 Y41.896 E0.6688
G1 X-12.410 Y41.896 E0.0122
G1 X-39.678 Y14.628 E0.6926
G1 X-39.936 Y13.691 E0.0175
G1 X-11.731 Y41.896 E0.7164
G1 X-11.053 Y41.896 E0.0122
G1 X-40.194 Y12.754 E0.7402
G1 X-40.452 Y11.817 E0.0175
G1 X-10.374 Y41.896 E0.7640
G1 X-9.695 Y41.896 E0.0122
G1 X-40.710 Y10.881 E0.7878
G1 X-40.968 Y9.944 E0.0175
G1 X-9.016 Y41.896 E0.8116
G1 X-8.337 Y41.896 E0.0122
G1 X-41.226 Y9.007 E0.8354
G1 X-41.484 Y8.070 E0.0175
G1 X-7.658 Y41.896 E0.8592
G1 X-6.980 Y41.896 E0.0122
G1 X-41.742 Y7.133 E0.8830
G1 X-42.000 Y6.196 E0.0175
G1 X-6.301 Y41.896 E0.9068
G1 X-5.622 Y41.896 E0.0122
G1 X-42.077 Y5.440 E0.9260
G1 X-42.104 Y4.735 E0.0127
G1 X-4.943 Y41.896 E0.9439
G1 X-4.264 Y41.896 E0.0122
G1 X-42.130 Y4.030 E0.9618
G1 X-42.156 Y3.325 E0.0127
G1 X-3.586 Y41.896 E0.9797
G1 X-2.907 Y41.896 E0.0122
G1 X-42.182 Y2.620 E0.9976
G1 X-42.209 Y1.915 E0.0127
G1 X-2.228 Y41.896 E1.0155
G1 X-1.549 Y41.896 E0.0122
G1 X-42.235 Y1.210 E1.0334
G1 X-42.261 Y0.505 E0.0127
G1 X-0.870 Y41.896 E1.0513
G1 X-0.191 Y41.896 E0.0122
G1 X-42.287 Y-0.200 E1.0692
G1 X-42.314 Y-0.906 E0.0127
G1 X0.487 Y41.896 E1.0871
G1 X1.166 Y41.896 E0.0122
G1 X-42.340 Y-1.611 E1.1051
G1 X-42.366 Y-2.316 E0.0127
G1 X1.845 Y41.896 E1.1230
G1 X2.524 Y41.896 E0.0122
G1 X-42.392 Y-3.021 E1.1409
G1 X-42.419 Y-3.726 E0.0127
G1 X3.203 Y41.896 E1.1588
G1 X3.882 Y41.896 E0.0122
G1 X-42.445 Y-4.431 E1.1767
G1 X-42.471 Y-5.136 E0.0127
G1 X4.560 Y41.896 E1.1946
G1 X5.239 Y41.896 E0.0122
G1 X-42.497 Y-5.841 E1.2125
G1 X-42.524 Y-6.546 E0.0127
G1 X5.918 Y41.896 E1.2304
G1 X6.597 Y41.896 E0.0122
G1 X-42.550 Y-7.251 E1.2483
G1 X-42.576 Y-7.956 E0.0127
G1 X7.276 Y41.896 E1.2662
G1 X7.954 Y41.896 E0.0122
G1 X-42.603 Y-8.661 E1.2841
G1 X-42.629 Y-9.367 E0.0127
G1 X8.633 Y41.896 E1.3021
G1 X9.312 Y41.896 E0.0122
G1 X-42.655 Y-10.072 E1.3200
G1 X-42.681 Y-10.777 E0.0127
G1 X9.991 Y41.896 E1.3379
G1 X10.670 Y41.896 E0.0122
G1 X-42.708 Y-11.482 E1.3558
G1 X-42.734 Y-12.187 E0.0127
G1 X11.349 Y41.896 E1.3737
G1 X12.027 Y41.896 E0.0122
G1 X-42.760 Y-12.892 E1.3916
G1 X-42.786 Y-13.597 E0.0127
G1 X12.706 Y41.896 E1.4095
G1 X13.385 Y41.896 E0.0122
G1 X-42.813 Y-14.302 E1.4274
G1 X-42.839 Y-15.007 E0.0127
G1 X14.064 Y41.896 E1.4453
G1 X14.743 Y41.896 E0.0122
G1 X-42.865 Y-15.712 E1.4632
G1 X-42.891 Y-16.417 E0.0127
G1 X15.422 Y41.896 E1.4811
G1 X16.100 Y41.896 E0.0122
G1 X-42.918 Y-17.122 E1.4991
G1 X-42.944 Y-17.828 E0.0127
G1 X16.779 Y41.896 E1.5170
G1 X17.458 Y41.896 E0.0122
G1 X-42.970 Y-18.533 E1.5349
G1 X-42.996 Y-19.238 E0.0127
G1 X18.137 Y41.896 E1.5528
G1 X18.816 Y41.896 E0.0122
G1 X-43.023 Y-19.943 E1.5707
G1 X-43.049 Y-20.648 E0.0127
G1 X19.494 Y41.896 E1.5886
G1 X20.173 Y41.896 E0.0122
G1 X-43.075 Y-21.353 E1.6065
G1 X-43.102 Y-22.058 E0.0127
G1 X20.852 Y41.896 E1.6244
G1 X21.531 Y41.896 E0.0122
G1 X-43.128 Y-22.763 E1.6423
G1 X-43.154 Y-23.468 E0.0127
G1 X22.210 Y41.896 E1.6602
G1 X22.889 Y41.896 E0.0122
G1 X-43.180 Y-24.173 E1.6781
G1 X-43.207 Y-24.878 E0.0127
G1 X23.567 Y41.896 E1.6961
G1 X24.246 Y41.896 E0.0122
G1 X-43.233 Y-25.583 E1.7140
G1 X-43.259 Y-26.289 E0.0127
G1 X24.925 Y41.896 E1.7319
G1 X25.604 Y41.896 E0.0122
G1 X-43.285 Y-26.994 E1.7498
G1 X-43.312 Y-27.699 E0.0127
G1 X26.283 Y41.896 E1.7677
G1 X26.961 Y41.896 E0.0122
G1 X-43.338 Y-28.404 E1.7856
G1 X-43.364 Y-29.109 E0.0127
G1 X27.640 Y41.896 E1.8035
G1 X28.319 Y41.896 E0.0122
G1 X-43.390 Y-29.814 E1.8214
G1 X-43.417 Y-30.519 E0.0127
G1 X28.998 Y41.896 E1.8393
G1 X29.677 Y41.896 E0.0122
G1 X-43.443 Y-31.224 E1.8572
G1 X-43.469 Y-31.929 E0.0127
G1 X30.356 Y41.896 E1.8751
G1 X31.034 Y41.896 E0.0122
G1 X-43.495 Y-32.634 E1.8931
G1 X-43.522 Y-33.339 E0.0127
G1 X31.713 Y41.896 E1.9110
G1 X32.189 Y41.896 E0.0085
G1 X32.236 Y41.739 E0.0029
G1 X-43.548 Y-34.044 E1.9249
G1 X-43.574 Y-34.750 E0.0127
G1 X32.392 Y41.217 E1.9295
G1 X32.548 Y40.694 E0.0098
G1 X-43.600 Y-35.455 E1.9342
G1 X-43.627 Y-36.160 E0.0127
G1 X32.704 Y40.171 E1.9388
G1 X32.861 Y39.649 E0.0098
G1 X-43.653 Y-36.865 E1.9434
G1 X-43.679 Y-37.570 E0.0127
G1 X33.017 Y39.126 E1.9481
G1 X33.173 Y38.604 E0.0098
G1 X-43.706 Y-38.275 E1.9527
G1 X-43.732 Y-38.980 E0.0127
G1 X33.329 Y38.081 E1.9573
G1 X33.485 Y37.558 E0.0098
G1 X-43.758 Y-39.685 E1.9620
G1 X-43.784 Y-40.390 E0.0127
G1 X33.642 Y37.036 E1.9666
G1 X33.798 Y36.513 E0.0098
G1 X-43.811 Y-41.095 E1.9712
G1 X-43.837 Y-41.800 E0.0127
G1 X33.954 Y35.990 E1.9759
G1 X34.110 Y35.468 E0.0098
G1 X-43.253 Y-41.896 E1.9650
G1 X-42.574 Y-41.896 E0.0122
G1 X34.266 Y34.945 E1.9518
G1 X34.423 Y34.423 E0.0098
G1 X-41.896 Y-41.896 E1.9385
G1 X-41.217 Y-41.896 E0.0122
G1 X34.579 Y33.900 E1.9252
G1 X34.735 Y33.377 E0.0098
G1 X-40.538 Y-41.896 E1.9119
G1 X-39.859 Y-41.896 E0.0122
G1 X34.891 Y32.855 E1.8987
G1 X35.047 Y32.332 E0.0098
G1 X-39.180 Y-41.896 E1.8854
G1 X-38.501 Y-41.896 E0.0122
G1 X35.204 Y31.810 E1.8721
G1 X35.360 Y31.287 E0.0098
G1 X-37.823 Y-41.896 E1.8588
G1 X-37.144 Y-41.896 E0.0122
G1 X35.516 Y30.764 E1.8456
G1 X35.672 Y30.242 E0.0098
G1 X-36.465 Y-41.896 E1.8323
G1 X-35.786 Y-41.896 E0.0122
G1 X35.828 Y29.719 E1.8190
G1 X35.985 Y29.196 E0.0098
G1 X-35.107 Y-41.896 E1.8057
G1 X-34.429 Y-41.896 E0.0122
G1 X36.141 Y28.674 E1.7925
G1 X36.297 Y28.151 E0.0098
G1 X-33.750 Y-41.896 E1.7792
G1 X-33.071 Y-41.896 E0.0122
G1 X36.453 Y27.629 E1.7659
G1 X36.610 Y27.106 E0.0098
G1 X-32.392 Y-41.896 E1.7526
G1 X-31.713 Y-41.896 E0.0122
G1 X36.766 Y26.583 E1.7394
G1 X36.922 Y26.061 E0.0098
G1 X-31.034 Y-41.896 E1.7261
G1 X-30.356 Y-41.896 E0.0122
G1 X37.078 Y25.538 E1.7128
G1 X37.234 Y25.016 E0.0098
G1 X-29.677 Y-41.896 E1.6995
G1 X-28.998 Y-41.896 E0.0122
G1 X37.391 Y24.493 E1.6863
G1 X37.547 Y23.970 E0.0098
G1 X-28.319 Y-41.896 E1.6730
G1 X-27.640 Y-41.896 E0.0122
G1 X37.703 Y23.448 E1.6597
G1 X37.859 Y22.925 E0.0098
G1 X-26.961 Y-41.896 E1.6464
G1 X-26.283 Y-41.896 E0.0122
G1 X38.015 Y22.402 E1.6332
G1 X38.172 Y21.880 E0.0098
G1 X-25.604 Y-41.896 E1.6199
G1 X-24.925 Y-41.896 E0.0122
G1 X38.328 Y21.357 E1.6066
G1 X38.484 Y20.835 E0.0098
G1 X-24.246 Y-41.896 E1.5933
G1 X-23.567 Y-41.896 E0.0122
G1 X38.640 Y20.312 E1.5801
G1 X38.796 Y19.789 E0.0098
G1 X-22.889 Y-41.896 E1.5668
G1 X-22.210 Y-41.896 E0.0122
G1 X38.953 Y19.267 E1.5535
G1 X39.109 Y18.744 E0.0098
G1 X-21.531 Y-41.896 E1.5402
G1 X-20.852 Y-41.896 E0.0122
G1 X39.265 Y18.222 E1.5270
G1 X39.421 Y17.699 E0.0098
G1 X-20.173 Y-41.896 E1.5137
G1 X-19.494 Y-41.896 E0.0122
G1 X39.577 Y17.176 E1.5004
G1 X39.734 Y16.654 E0.0098
G1 X-18.816 Y-41.896 E1.4871
G1 X-18.137 Y-41.896 E0.0122
G1 X39.890 Y16.131 E1.4739
G1 X40.046 Y15.608 E0.0098
G1 X-17.458 Y-41.896 E1.4606
G1 X-16.779 Y-41.896 E0.0122
G1 X40.202 Y15.086 E1.4473
G1 X40.359 Y14.563 E0.0098
G1 X-16.100 Y-41.896 E1.4341
G1 X-15.421 Y-41.896 E0.0122
