; G-Code generated by Simplify3D(R) Version 3.1.0
; sep. 29, 2016 at 10:39:05 EM
; Settings Summary
;   processName,PLA
;   applyToModels,GearV4
;   profileName,Wanhao Duplicator 4S - PLA
;   profileVersion,2016-09-06 22:26:53
;   baseProfile,Wanhao Duplicator 4/4X Dual
;   printMaterial,PLA
;   printQuality,High
;   printExtruders,Left Extruder Only
;   extruderName,Right Extruder,Left Extruder
;   extruderToolheadNumber,0,1
;   extruderDiameter,0.4,0.4
;   extruderAutoWidth,0,1
;   extruderWidth,0.4,0.48
;   extrusionMultiplier,0.9,0.9
;   extruderUseRetract,1,1
;   extruderRetractionDistance,1,2
;   extruderExtraRestartDistance,0,0
;   extruderRetractionZLift,0,0
;   extruderRetractionSpeed,1200,1200
;   extruderUseCoasting,0,0
;   extruderCoastingDistance,0.2,0.2
;   extruderUseWipe,0,0
;   extruderWipeDistance,5,5
;   primaryExtruder,1
;   layerHeight,0.1
;   topSolidLayers,6
;   bottomSolidLayers,6
;   perimeterOutlines,2
;   printPerimetersInsideOut,1
;   startPointOption,2
;   startPointOriginX,0
;   startPointOriginY,0
;   startPointOriginZ,0
;   sequentialIslands,0
;   spiralVaseMode,0
;   firstLayerHeightPercentage,90
;   firstLayerWidthPercentage,80
;   firstLayerUnderspeed,0.5
;   useRaft,0
;   raftExtruder,1
;   raftLayers,3
;   raftOffset,3
;   raftSeparationDistance,0.14
;   raftInfill,85
;   disableRaftBaseLayers,0
;   useSkirt,0
;   skirtExtruder,1
;   skirtLayers,2
;   skirtOutlines,2
;   skirtOffset,4
;   usePrimePillar,0
;   primePillarExtruder,999
;   primePillarWidth,12
;   primePillarLocation,7
;   primePillarSpeedMultiplier,1
;   useOozeShield,0
;   oozeShieldExtruder,999
;   oozeShieldOffset,2
;   oozeShieldOutlines,1
;   oozeShieldSidewallShape,1
;   oozeShieldSidewallAngle,30
;   oozeShieldSpeedMultiplier,1
;   infillExtruder,1
;   internalInfillPattern,Rectilinear
;   externalInfillPattern,Rectilinear
;   infillPercentage,20
;   outlineOverlapPercentage,20
;   infillExtrusionWidthPercentage,100
;   minInfillLength,5
;   infillLayerInterval,1
;   infillAngles,45,-45
;   overlapInfillAngles,0
;   generateSupport,0
;   supportExtruder,1
;   supportInfillPercentage,40
;   supportExtraInflation,0
;   denseSupportLayers,0
;   denseSupportInfillPercentage,70
;   supportLayerInterval,1
;   supportHorizontalPartOffset,0.3
;   supportUpperSeparationLayers,1
;   supportLowerSeparationLayers,1
;   supportType,0
;   supportGridSpacing,4
;   maxOverhangAngle,45
;   supportAngles,0
;   temperatureName,Right Extruder,Left Extruder,Heated Build Platform
;   temperatureNumber,0,1,0
;   temperatureSetpointCount,1,1,1
;   temperatureSetpointLayers,1,1,1
;   temperatureSetpointTemperatures,0,230,60
;   temperatureStabilizeAtStartup,0,0,0
;   temperatureHeatedBed,0,0,1
;   temperatureRelayBetweenLayers,0,0,0
;   temperatureRelayBetweenLoops,0,0,0
;   fanLayers,1,2
;   fanSpeeds,0,100
;   blipFanToFullPower,0
;   adjustSpeedForCooling,1
;   minSpeedLayerTime,15
;   minCoolingSpeedSlowdown,20
;   increaseFanForCooling,0
;   minFanLayerTime,45
;   maxCoolingFanSpeed,100
;   increaseFanForBridging,1
;   bridgingFanSpeed,100
;   use5D,1
;   relativeEdistances,1
;   allowEaxisZeroing,0
;   independentExtruderAxes,1
;   includeM10123,0
;   stickySupport,1
;   applyToolheadOffsets,0
;   gcodeXoffset,0
;   gcodeYoffset,0
;   gcodeZoffset,0
;   overrideMachineDefinition,1
;   machineTypeOverride,0
;   strokeXoverride,220
;   strokeYoverride,140
;   strokeZoverride,150
;   originOffsetXoverride,110
;   originOffsetYoverride,70
;   originOffsetZoverride,0
;   homeXdirOverride,1
;   homeYdirOverride,1
;   homeZdirOverride,-1
;   flipXoverride,1
;   flipYoverride,-1
;   flipZoverride,1
;   toolheadOffsets,0,0|34,0|0,0|0,0|0,0|0,0
;   overrideFirmwareConfiguration,1
;   firmwareTypeOverride,MakerBot/Sailfish Firmware
;   GPXconfigOverride,r1d
;   baudRateOverride,115200
;   overridePrinterModels,1
;   printerModelsOverride
;   startingGcode,; **** Duplicator 4 dual start.gcode ****,M73 P0 ; enable build progress,G162 X Y F3000 ; home XY maximum,G161 Z F1200 ; home Z minimum,G92 Z-5 ; set Z to -5,G1 Z0 ; move Z to 0,G161 Z F100 ; home Z slowly,M132 X Y Z A B ; recall home offsets,M135 T0 ; load right extruder offsets,G1 X-120 Y-70 Z30 F9000 ; move to wait position off table,G130 X20 Y20 Z20 A20 B20 ; lower stepper Vrefs while heating,M126 S[fan_speed_pwm],M140 S[bed0_temperature] T0,M134 T0 ; stabilize bed temperature,M104 S[extruder1_temperature] T1,M133 T1 ; stabilize extruder temperature,G130 X127 Y127 Z40 A127 B127 ; default stepper Vrefs,G92 A0 B0 ; zero extruders,M135 T1 ; load left extruder offsets,G1 Z0.4 ; position nozzle,G1 E25 F300 ; purge nozzle,G1 X-115 Y-65 Z0.15 F1200 ; slow wipe,G1 X-110 Y-60 Z0.5 F1200 ; lift,G92 A0 B0 ; zero extruders,M73 P1 ;@body (notify GPX body has started),; **** end of start.gcode ****
;   layerChangeGcode,
;   retractionGcode,
;   toolChangeGcode,
;   endingGcode,; **** Duplicator 4 dual end.gcode ****,M73 P100 ; end build progress,G1 Z150 F1000 ; send Z axis to bottom of machine,M140 S0 T0 ; cool down HBP,M104 S0 T0 ; cool down right extruder,M104 S0 T1 ; cool down left extruder,M127 ; stop blower fan,G162 X Y F3000 ; home XY maximum,M18 ; disable stepper,M72 P1 ; play Ta-Da song,; **** end of end.gcode ****
;   exportFileFormat,gcode
;   celebration,0
;   celebrationSong,Random Song
;   postProcessing,
;   defaultSpeed,3600
;   outlineUnderspeed,0.5
;   solidInfillUnderspeed,0.8
;   supportUnderspeed,0.8
;   rapidXYspeed,4200
;   rapidZspeed,1200
;   minBridgingArea,50
;   bridgingExtraInflation,0
;   bridgingExtrusionMultiplier,1
;   bridgingSpeedMultiplier,0.8
;   filamentDiameter,1.75
;   filamentPricePerKg,299
;   filamentDensity,1.25
;   useMinPrintHeight,0
;   minPrintHeight,0
;   useMaxPrintHeight,0
;   maxPrintHeight,0
;   useDiaphragm,0
;   diaphragmLayerInterval,20
;   robustSlicing,1
;   mergeAllIntoSolid,0
;   onlyRetractWhenCrossingOutline,1
;   retractBetweenLayers,1
;   useRetractionMinTravel,0
;   retractionMinTravel,3
;   retractWhileWiping,0
;   onlyWipeOutlines,1
;   avoidCrossingOutline,0
;   maxMovementDetourFactor,3
;   toolChangeRetractionDistance,12
;   toolChangeExtraRestartDistance,-0.5
;   toolChangeRetractionSpeed,600
;   allowThinWallGapFill,1
;   thinWallAllowedOverlapPercentage,10
;   horizontalSizeCompensation,0
G90
M83
; **** Duplicator 4 dual start.gcode ****
M73 P0 ; enable build progress
G162 X Y F3000 ; home XY maximum
G161 Z F1200 ; home Z minimum
G92 Z-5 ; set Z to -5
G1 Z0 ; move Z to 0
G161 Z F100 ; home Z slowly
M132 X Y Z A B ; recall home offsets
M135 T0 ; load right extruder offsets
G1 X-120 Y-70 Z30 F9000 ; move to wait position off table
G130 X20 Y20 Z20 A20 B20 ; lower stepper Vrefs while heating
M127
M140 S60 T0
M134 T0 ; stabilize bed temperature
M104 S230 T1
M133 T1 ; stabilize extruder temperature
G130 X127 Y127 Z40 A127 B127 ; default stepper Vrefs
G92 A0 B0 ; zero extruders
M135 T1 ; load left extruder offsets
G1 Z0.4 ; position nozzle
G1 E25 F300 ; purge nozzle
G1 X-115 Y-65 Z0.15 F1200 ; slow wipe
G1 X-110 Y-60 Z0.5 F1200 ; lift
G92 A0 B0 ; zero extruders
M73 P1 ;@body (notify GPX body has started)
; **** end of start.gcode ****
G1 E-2.0000 F1200
G1 Z0.090 F1200
; layer 1, Z = 0.09
M135 T1
; tool H0.100 W0.384
; inner perimeter
G1 X8.512 Y-2.664 F4200
G1 E2.0000 F360
G1 X8.814 Y-1.454 E0.0179 F1350
G1 X16.895 Y-1.454 E0.1161
G1 X17.228 Y-1.421 E0.0048
G1 X17.343 Y-1.392 E0.0017
G1 X17.625 Y-1.277 E0.0044
G1 X17.869 Y-1.116 E0.0042
G1 X18.078 Y-0.911 E0.0042
G1 X18.243 Y-0.669 E0.0042
G1 X18.358 Y-0.401 E0.0042
G1 X18.422 Y-0.101 E0.0044
G1 X18.430 Y0.021 E0.0018
G1 X18.422 Y0.143 E0.0018
G1 X18.357 Y0.443 E0.0044
G1 X18.236 Y0.725 E0.0044
G1 X18.173 Y0.826 E0.0017
G1 X17.969 Y1.070 E0.0046
G1 X17.870 Y1.158 E0.0019
G1 X17.763 Y1.236 E0.0019
G1 X17.491 Y1.379 E0.0044
G1 X17.211 Y1.463 E0.0042
G1 X16.893 Y1.494 E0.0046
G1 X8.806 Y1.494 E0.1162
G1 X8.500 Y2.694 E0.0178
G1 X8.248 Y3.426 E0.0111
G1 X8.106 Y3.770 E0.0053
G1 X7.560 Y4.891 E0.0179
G1 X13.750 Y10.085 E0.1161
G1 X13.975 Y10.314 E0.0046
G1 X14.134 Y10.557 E0.0042
G1 X14.244 Y10.828 E0.0042
G1 X14.303 Y11.129 E0.0044
G1 X14.309 Y11.261 E0.0019
G1 X14.303 Y11.394 E0.0019
G1 X14.243 Y11.694 E0.0044
G1 X14.127 Y11.978 E0.0044
G1 X14.059 Y12.092 E0.0019
G1 X13.987 Y12.191 E0.0018
G1 X13.771 Y12.394 E0.0043
G1 X13.524 Y12.550 E0.0042
G1 X13.250 Y12.656 E0.0042
G1 X12.965 Y12.706 E0.0042
G1 X12.672 Y12.701 E0.0042
G1 X12.386 Y12.639 E0.0042
G1 X12.117 Y12.523 E0.0042
G1 X11.854 Y12.342 E0.0046
G1 X5.659 Y7.144 E0.1162
G1 X4.653 Y7.867 E0.0178
G1 X3.995 Y8.262 E0.0110
G1 X3.302 Y8.606 E0.0111
G1 X2.519 Y8.935 E0.0122
G1 X3.927 Y16.917 E0.1165
G1 X3.945 Y17.062 E0.0021
G1 X3.938 Y17.369 E0.0044
G1 X3.877 Y17.652 E0.0042
G1 X3.761 Y17.921 E0.0042
G1 X3.595 Y18.162 E0.0042
G1 X3.386 Y18.367 E0.0042
G1 X3.141 Y18.527 E0.0042
G1 X2.857 Y18.642 E0.0044
G1 X2.738 Y18.671 E0.0018
G1 X2.616 Y18.684 E0.0018
G1 X2.310 Y18.673 E0.0044
G1 X2.012 Y18.602 E0.0044
G1 X1.901 Y18.558 E0.0017
G1 X1.626 Y18.399 E0.0046
G1 X1.521 Y18.317 E0.0019
G1 X1.426 Y18.225 E0.0019
G1 X1.238 Y17.982 E0.0044
G1 X1.106 Y17.721 E0.0042
G1 X1.021 Y17.413 E0.0046
G1 X-0.383 Y9.449 E0.1162
G1 X-1.619 Y9.356 E0.0178
G1 X-2.383 Y9.235 E0.0111
G1 X-2.746 Y9.155 E0.0053
G1 X-3.945 Y8.812 E0.0179
G1 X-7.986 Y15.810 E0.1161
G1 X-8.172 Y16.071 E0.0046
G1 X-8.383 Y16.269 E0.0042
G1 X-8.643 Y16.433 E0.0044
G1 X-8.752 Y16.481 E0.0017
G1 X-9.061 Y16.566 E0.0046
G1 X-9.178 Y16.581 E0.0017
G1 X-9.485 Y16.575 E0.0044
G1 X-9.771 Y16.512 E0.0042
G1 X-10.042 Y16.394 E0.0043
G1 X-10.132 Y16.334 E0.0016
G1 X-10.360 Y16.128 E0.0044
G1 X-10.534 Y15.893 E0.0042
G1 X-10.660 Y15.631 E0.0042
G1 X-10.736 Y15.334 E0.0044
G1 X-10.749 Y15.216 E0.0017
G1 X-10.737 Y14.910 E0.0044
G1 X-10.670 Y14.625 E0.0042
G1 X-10.538 Y14.334 E0.0046
G1 X-6.494 Y7.331 E0.1162
G1 X-7.380 Y6.466 E0.0178
G1 X-7.888 Y5.882 E0.0111
G1 X-8.115 Y5.587 E0.0053
G1 X-8.812 Y4.553 E0.0179
G1 X-16.406 Y7.317 E0.1161
G1 X-16.717 Y7.397 E0.0046
G1 X-17.006 Y7.413 E0.0042
G1 X-17.296 Y7.374 E0.0042
G1 X-17.573 Y7.279 E0.0042
G1 X-17.826 Y7.132 E0.0042
G1 X-18.046 Y6.939 E0.0042
G1 X-18.225 Y6.707 E0.0042
G1 X-18.357 Y6.442 E0.0043
G1 X-18.388 Y6.338 E0.0016
G1 X-18.431 Y6.021 E0.0046
G1 X-18.430 Y5.902 E0.0017
G1 X-18.382 Y5.599 E0.0044
G1 X-18.283 Y5.326 E0.0042
G1 X-18.125 Y5.063 E0.0044
G1 X-18.050 Y4.972 E0.0017
G1 X-17.812 Y4.756 E0.0046
G1 X-17.714 Y4.690 E0.0017
G1 X-17.413 Y4.546 E0.0048
G1 X-9.813 Y1.780 E0.1162
G1 X-9.936 Y0.548 E0.0178
G1 X-9.950 Y-0.226 E0.0111
G1 X-9.934 Y-0.598 E0.0054
G1 X-9.804 Y-1.837 E0.0179
G1 X-17.571 Y-4.675 E0.1188
G1 X-17.676 Y-4.732 E0.0017
G1 X-17.919 Y-4.914 E0.0044
G1 X-18.125 Y-5.141 E0.0044
G1 X-18.199 Y-5.251 E0.0019
G1 X-18.262 Y-5.368 E0.0019
G1 X-18.367 Y-5.656 E0.0044
G1 X-18.413 Y-5.959 E0.0044
G1 X-18.415 Y-6.092 E0.0019
G1 X-18.403 Y-6.224 E0.0019
G1 X-18.334 Y-6.512 E0.0043
G1 X-18.201 Y-6.777 E0.0043
G1 X-18.133 Y-6.874 E0.0017
G1 X-17.922 Y-7.097 E0.0044
G1 X-17.675 Y-7.274 E0.0044
G1 X-17.569 Y-7.329 E0.0017
G1 X-17.266 Y-7.433 E0.0046
G1 X-17.136 Y-7.457 E0.0019
G1 X-17.003 Y-7.469 E0.0019
G1 X-16.683 Y-7.450 E0.0046
G1 X-16.569 Y-7.427 E0.0017
G1 X-8.788 Y-4.606 E0.1189
G1 X-8.090 Y-5.628 E0.0178
G1 X-7.607 Y-6.225 E0.0110
G1 X-7.074 Y-6.785 E0.0111
G1 X-6.451 Y-7.362 E0.0122
G1 X-10.496 Y-14.369 E0.1163
G1 X-10.634 Y-14.674 E0.0048
G1 X-10.667 Y-14.788 E0.0017
G1 X-10.710 Y-15.103 E0.0046
G1 X-10.709 Y-15.222 E0.0017
G1 X-10.661 Y-15.525 E0.0044
G1 X-10.560 Y-15.800 E0.0042
G1 X-10.409 Y-16.050 E0.0042
G1 X-10.212 Y-16.266 E0.0042
G1 X-9.985 Y-16.434 E0.0041
G1 X-9.726 Y-16.546 E0.0041
G1 X-9.426 Y-16.611 E0.0044
G1 X-9.307 Y-16.619 E0.0017
G1 X-8.990 Y-16.595 E0.0046
G1 X-8.875 Y-16.569 E0.0017
G1 X-8.575 Y-16.453 E0.0046
G1 X-8.472 Y-16.395 E0.0017
G1 X-8.230 Y-16.207 E0.0044
G1 X-8.037 Y-15.986 E0.0042
G1 X-3.898 Y-8.838 E0.1187
G1 X-2.701 Y-9.175 E0.0179
G1 X-2.337 Y-9.253 E0.0053
G1 X-1.572 Y-9.370 E0.0111
G1 X-0.334 Y-9.457 E0.0178
G1 X1.069 Y-17.415 E0.1161
G1 X1.156 Y-17.724 E0.0046
G1 X1.292 Y-17.996 E0.0044
G1 X1.360 Y-18.093 E0.0017
G1 X1.581 Y-18.326 E0.0046
G1 X1.674 Y-18.400 E0.0017
G1 X1.940 Y-18.553 E0.0044
G1 X2.230 Y-18.651 E0.0044
G1 X2.347 Y-18.673 E0.0017
G1 X2.667 Y-18.685 E0.0046
G1 X2.789 Y-18.671 E0.0018
G1 X2.907 Y-18.642 E0.0018
G1 X3.191 Y-18.526 E0.0044
G1 X3.436 Y-18.365 E0.0042
G1 X3.643 Y-18.162 E0.0042
G1 X3.809 Y-17.921 E0.0042
G1 X3.925 Y-17.652 E0.0042
G1 X3.990 Y-17.352 E0.0044
G1 X3.998 Y-17.234 E0.0017
G1 X3.972 Y-16.902 E0.0048
G1 X2.568 Y-8.937 E0.1162
G1 X3.699 Y-8.426 E0.0178
G1 X4.373 Y-8.053 E0.0111
G1 X4.687 Y-7.853 E0.0053
G1 X5.696 Y-7.120 E0.0179
G1 X11.887 Y-12.315 E0.1161
G1 X12.152 Y-12.496 E0.0046
G1 X12.431 Y-12.616 E0.0044
G1 X12.546 Y-12.647 E0.0017
G1 X12.864 Y-12.684 E0.0046
G1 X12.997 Y-12.680 E0.0019
G1 X13.128 Y-12.663 E0.0019
G1 X13.424 Y-12.580 E0.0044
G1 X13.685 Y-12.448 E0.0042
G1 X13.927 Y-12.260 E0.0044
G1 X14.011 Y-12.172 E0.0018
G1 X14.083 Y-12.073 E0.0018
G1 X14.226 Y-11.801 E0.0044
G1 X14.310 Y-11.521 E0.0042
G1 X14.339 Y-11.232 E0.0042
G1 X14.311 Y-10.941 E0.0042
G1 X14.227 Y-10.661 E0.0042
G1 X14.084 Y-10.389 E0.0044
G1 X14.014 Y-10.293 E0.0017
G1 X13.780 Y-10.055 E0.0048
G1 X7.585 Y-4.857 E0.1162
G1 X8.122 Y-3.741 E0.0178
G1 X8.400 Y-3.019 E0.0111
G1 X8.512 Y-2.664 E0.0053
; outer perimeter
G1 X9.104 Y1.878 F4200
G1 X8.868 Y2.804 E0.0137 F900
G1 X8.608 Y3.562 E0.0115
G1 X8.457 Y3.927 E0.0057
G1 X8.037 Y4.789 E0.0138
G1 X14.012 Y9.803 E0.1121
G1 X14.275 Y10.073 E0.0054
G1 X14.475 Y10.377 E0.0052
G1 X14.614 Y10.717 E0.0053
G1 X14.685 Y11.083 E0.0053
G1 X14.694 Y11.262 E0.0026
G1 X14.685 Y11.441 E0.0026
G1 X14.613 Y11.806 E0.0053
G1 X14.471 Y12.150 E0.0053
G1 X14.379 Y12.304 E0.0026
G1 X14.276 Y12.446 E0.0025
G1 X14.008 Y12.699 E0.0053
G1 X13.697 Y12.895 E0.0053
G1 X13.354 Y13.027 E0.0053
G1 X12.995 Y13.091 E0.0052
G1 X12.627 Y13.084 E0.0053
G1 X12.268 Y13.006 E0.0053
G1 X11.931 Y12.860 E0.0053
G1 X11.622 Y12.648 E0.0054
G1 X5.641 Y7.630 E0.1122
G1 X4.864 Y8.187 E0.0137
G1 X4.180 Y8.599 E0.0115
G1 X3.462 Y8.955 E0.0115
G1 X2.951 Y9.170 E0.0080
G1 X4.307 Y16.860 E0.1122
G1 X4.329 Y17.042 E0.0026
G1 X4.322 Y17.414 E0.0053
G1 X4.244 Y17.770 E0.0052
G1 X4.098 Y18.108 E0.0053
G1 X3.890 Y18.410 E0.0053
G1 X3.627 Y18.667 E0.0053
G1 X3.320 Y18.869 E0.0053
G1 X2.975 Y19.009 E0.0053
G1 X2.805 Y19.050 E0.0025
G1 X2.630 Y19.069 E0.0025
G1 X2.258 Y19.055 E0.0053
G1 X1.896 Y18.969 E0.0053
G1 X1.733 Y18.904 E0.0025
G1 X1.409 Y18.718 E0.0054
G1 X1.269 Y18.607 E0.0026
G1 X1.139 Y18.482 E0.0026
G1 X0.911 Y18.188 E0.0053
G1 X0.746 Y17.860 E0.0053
G1 X0.646 Y17.498 E0.0054
G1 X-0.710 Y9.809 E0.1122
G1 X-1.663 Y9.738 E0.0137
G1 X-2.454 Y9.613 E0.0115
G1 X-2.841 Y9.527 E0.0057
G1 X-3.762 Y9.263 E0.0138
G1 X-7.662 Y16.018 E0.1121
G1 X-7.882 Y16.325 E0.0054
G1 X-8.147 Y16.575 E0.0052
G1 X-8.462 Y16.773 E0.0053
G1 X-8.622 Y16.843 E0.0025
G1 X-8.985 Y16.944 E0.0054
G1 X-9.158 Y16.966 E0.0025
G1 X-9.530 Y16.958 E0.0053
G1 X-9.889 Y16.879 E0.0053
G1 X-10.227 Y16.732 E0.0053
G1 X-10.370 Y16.637 E0.0025
G1 X-10.645 Y16.387 E0.0053
G1 X-10.865 Y16.092 E0.0053
G1 X-11.022 Y15.764 E0.0052
G1 X-11.115 Y15.403 E0.0053
G1 X-11.134 Y15.230 E0.0025
G1 X-11.120 Y14.858 E0.0053
G1 X-11.035 Y14.500 E0.0053
G1 X-10.879 Y14.159 E0.0054
G1 X-6.976 Y7.397 E0.1122
G1 X-7.660 Y6.729 E0.0137
G1 X-8.186 Y6.125 E0.0115
G1 X-8.427 Y5.811 E0.0057
G1 X-8.963 Y5.017 E0.0138
G1 X-16.293 Y7.684 E0.1121
G1 X-16.658 Y7.778 E0.0054
G1 X-17.022 Y7.799 E0.0052
G1 X-17.386 Y7.749 E0.0053
G1 X-17.733 Y7.630 E0.0053
G1 X-18.051 Y7.445 E0.0053
G1 X-18.328 Y7.203 E0.0053
G1 X-18.552 Y6.912 E0.0053
G1 X-18.717 Y6.583 E0.0053
G1 X-18.764 Y6.418 E0.0025
G1 X-18.815 Y6.045 E0.0054
G1 X-18.814 Y5.870 E0.0025
G1 X-18.756 Y5.502 E0.0053
G1 X-18.632 Y5.160 E0.0052
G1 X-18.439 Y4.841 E0.0053
G1 X-18.329 Y4.706 E0.0025
G1 X-18.049 Y4.453 E0.0054
G1 X-17.904 Y4.356 E0.0025
G1 X-17.562 Y4.192 E0.0055
G1 X-10.225 Y1.522 E0.1122
G1 X-10.320 Y0.570 E0.0137
G1 X-10.334 Y-0.231 E0.0115
