; G-Code generated by Simplify3D(R) Version 3.1.0
; sep. 29, 2016 at 4:24:24 EM
; Settings Summary
;   processName,PLA
;   applyToModels,Namnlös
;   profileName,Wanhao Duplicator 4S - PLA (modified)
;   profileVersion,2016-09-06 22:26:53
;   baseProfile,Wanhao Duplicator 4/4X Dual
;   printMaterial,PLA
;   printQuality,High
;   printExtruders,Left Extruder Only
;   extruderName,Right Extruder,Left Extruder
;   extruderToolheadNumber,0,1
;   extruderDiameter,0.4,0.4
;   extruderAutoWidth,0,1
;   extruderWidth,0.4,0.48
;   extrusionMultiplier,0.9,0.9
;   extruderUseRetract,1,1
;   extruderRetractionDistance,1,2
;   extruderExtraRestartDistance,0,0
;   extruderRetractionZLift,0,0
;   extruderRetractionSpeed,1200,1200
;   extruderUseCoasting,0,0
;   extruderCoastingDistance,0.2,0.2
;   extruderUseWipe,0,0
;   extruderWipeDistance,5,5
;   primaryExtruder,1
;   layerHeight,0.1
;   topSolidLayers,8
;   bottomSolidLayers,8
;   perimeterOutlines,2
;   printPerimetersInsideOut,1
;   startPointOption,2
;   startPointOriginX,0
;   startPointOriginY,0
;   startPointOriginZ,0
;   sequentialIslands,0
;   spiralVaseMode,0
;   firstLayerHeightPercentage,90
;   firstLayerWidthPercentage,100
;   firstLayerUnderspeed,0.5
;   useRaft,0
;   raftExtruder,1
;   raftLayers,3
;   raftOffset,3
;   raftSeparationDistance,0.14
;   raftInfill,85
;   disableRaftBaseLayers,0
;   useSkirt,0
;   skirtExtruder,1
;   skirtLayers,2
;   skirtOutlines,2
;   skirtOffset,4
;   usePrimePillar,0
;   primePillarExtruder,999
;   primePillarWidth,12
;   primePillarLocation,7
;   primePillarSpeedMultiplier,1
;   useOozeShield,0
;   oozeShieldExtruder,999
;   oozeShieldOffset,2
;   oozeShieldOutlines,1
;   oozeShieldSidewallShape,1
;   oozeShieldSidewallAngle,30
;   oozeShieldSpeedMultiplier,1
;   infillExtruder,1
;   internalInfillPattern,Rectilinear
;   externalInfillPattern,Rectilinear
;   infillPercentage,20
;   outlineOverlapPercentage,20
;   infillExtrusionWidthPercentage,100
;   minInfillLength,5
;   infillLayerInterval,1
;   infillAngles,45,-45
;   overlapInfillAngles,0
;   generateSupport,0
;   supportExtruder,1
;   supportInfillPercentage,40
;   supportExtraInflation,0
;   denseSupportLayers,0
;   denseSupportInfillPercentage,70
;   supportLayerInterval,1
;   supportHorizontalPartOffset,0.3
;   supportUpperSeparationLayers,1
;   supportLowerSeparationLayers,1
;   supportType,0
;   supportGridSpacing,4
;   maxOverhangAngle,45
;   supportAngles,0
;   temperatureName,Right Extruder,Left Extruder,Heated Build Platform
;   temperatureNumber,0,1,0
;   temperatureSetpointCount,1,1,1
;   temperatureSetpointLayers,1,1,1
;   temperatureSetpointTemperatures,0,230,60
;   temperatureStabilizeAtStartup,0,0,0
;   temperatureHeatedBed,0,0,1
;   temperatureRelayBetweenLayers,0,0,0
;   temperatureRelayBetweenLoops,0,0,0
;   fanLayers,1,2
;   fanSpeeds,0,100
;   blipFanToFullPower,0
;   adjustSpeedForCooling,1
;   minSpeedLayerTime,15
;   minCoolingSpeedSlowdown,20
;   increaseFanForCooling,0
;   minFanLayerTime,45
;   maxCoolingFanSpeed,100
;   increaseFanForBridging,1
;   bridgingFanSpeed,100
;   use5D,1
;   relativeEdistances,1
;   allowEaxisZeroing,0
;   independentExtruderAxes,1
;   includeM10123,0
;   stickySupport,1
;   applyToolheadOffsets,0
;   gcodeXoffset,0
;   gcodeYoffset,0
;   gcodeZoffset,0
;   overrideMachineDefinition,1
;   machineTypeOverride,0
;   strokeXoverride,220
;   strokeYoverride,140
;   strokeZoverride,150
;   originOffsetXoverride,110
;   originOffsetYoverride,70
;   originOffsetZoverride,0
;   homeXdirOverride,1
;   homeYdirOverride,1
;   homeZdirOverride,-1
;   flipXoverride,1
;   flipYoverride,-1
;   flipZoverride,1
;   toolheadOffsets,0,0|34,0|0,0|0,0|0,0|0,0
;   overrideFirmwareConfiguration,1
;   firmwareTypeOverride,MakerBot/Sailfish Firmware
;   GPXconfigOverride,r1d
;   baudRateOverride,115200
;   overridePrinterModels,1
;   printerModelsOverride
;   startingGcode,; **** Duplicator 4 dual start.gcode ****,M73 P0 ; enable build progress,G162 X Y F3000 ; home XY maximum,G161 Z F1200 ; home Z minimum,G92 Z-5 ; set Z to -5,G1 Z0 ; move Z to 0,G161 Z F100 ; home Z slowly,M132 X Y Z A B ; recall home offsets,M135 T0 ; load right extruder offsets,G1 X-120 Y-70 Z30 F9000 ; move to wait position off table,G130 X20 Y20 Z20 A20 B20 ; lower stepper Vrefs while heating,M126 S[fan_speed_pwm],M140 S[bed0_temperature] T0,M134 T0 ; stabilize bed temperature,M104 S[extruder1_temperature] T1,M133 T1 ; stabilize extruder temperature,G130 X127 Y127 Z40 A127 B127 ; default stepper Vrefs,G92 A0 B0 ; zero extruders,M135 T1 ; load left extruder offsets,G1 Z0.4 ; position nozzle,G1 E25 F300 ; purge nozzle,G1 X-115 Y-65 Z0.15 F1200 ; slow wipe,G1 X-110 Y-60 Z0.5 F1200 ; lift,G92 A0 B0 ; zero extruders,M73 P1 ;@body (notify GPX body has started),; **** end of start.gcode ****
;   layerChangeGcode,
;   retractionGcode,
;   toolChangeGcode,
;   endingGcode,; **** Duplicator 4 dual end.gcode ****,M73 P100 ; end build progress,G1 Z150 F1000 ; send Z axis to bottom of machine,M140 S0 T0 ; cool down HBP,M104 S0 T0 ; cool down right extruder,M104 S0 T1 ; cool down left extruder,M127 ; stop blower fan,G162 X Y F3000 ; home XY maximum,M18 ; disable stepper,M72 P1 ; play Ta-Da song,; **** end of end.gcode ****
;   exportFileFormat,gcode
;   celebration,0
;   celebrationSong,Random Song
;   postProcessing,
;   defaultSpeed,3600
;   outlineUnderspeed,0.5
;   solidInfillUnderspeed,0.8
;   supportUnderspeed,0.8
;   rapidXYspeed,4200
;   rapidZspeed,1200
;   minBridgingArea,50
;   bridgingExtraInflation,0
;   bridgingExtrusionMultiplier,1
;   bridgingSpeedMultiplier,0.8
;   filamentDiameter,1.75
;   filamentPricePerKg,299
;   filamentDensity,1.25
;   useMinPrintHeight,0
;   minPrintHeight,0
;   useMaxPrintHeight,0
;   maxPrintHeight,0
;   useDiaphragm,0
;   diaphragmLayerInterval,20
;   robustSlicing,1
;   mergeAllIntoSolid,0
;   onlyRetractWhenCrossingOutline,1
;   retractBetweenLayers,1
;   useRetractionMinTravel,0
;   retractionMinTravel,3
;   retractWhileWiping,0
;   onlyWipeOutlines,1
;   avoidCrossingOutline,0
;   maxMovementDetourFactor,3
;   toolChangeRetractionDistance,12
;   toolChangeExtraRestartDistance,-0.5
;   toolChangeRetractionSpeed,600
;   allowThinWallGapFill,1
;   thinWallAllowedOverlapPercentage,10
;   horizontalSizeCompensation,0
G90
M83
; **** Duplicator 4 dual start.gcode ****
M73 P0 ; enable build progress
G162 X Y F3000 ; home XY maximum
G161 Z F1200 ; home Z minimum
G92 Z-5 ; set Z to -5
G1 Z0 ; move Z to 0
G161 Z F100 ; home Z slowly
M132 X Y Z A B ; recall home offsets
M135 T0 ; load right extruder offsets
G1 X-120 Y-70 Z30 F9000 ; move to wait position off table
G130 X20 Y20 Z20 A20 B20 ; lower stepper Vrefs while heating
M127
M140 S60 T0
M134 T0 ; stabilize bed temperature
M104 S230 T1
M133 T1 ; stabilize extruder temperature
G130 X127 Y127 Z40 A127 B127 ; default stepper Vrefs
G92 A0 B0 ; zero extruders
M135 T1 ; load left extruder offsets
G1 Z0.4 ; position nozzle
G1 E25 F300 ; purge nozzle
G1 X-115 Y-65 Z0.15 F1200 ; slow wipe
G1 X-110 Y-60 Z0.5 F1200 ; lift
G92 A0 B0 ; zero extruders
M73 P1 ;@body (notify GPX body has started)
; **** end of start.gcode ****
G1 E-2.0000 F1200
G1 Z0.090 F1200
; layer 1, Z = 0.09
M135 T1
; tool H0.100 W0.480
; inner perimeter
G1 X-10.032 Y-8.726 F4200
G1 E2.0000 F360
G1 X10.100 Y-8.771 E0.3616 F1350
G1 X10.830 Y-9.557 E0.0193
G1 X11.356 Y-10.092 E0.0135
G1 X11.897 Y-10.612 E0.0135
G1 X12.454 Y-11.115 E0.0135
G1 X13.024 Y-11.602 E0.0135
G1 X13.609 Y-12.072 E0.0135
G1 X14.207 Y-12.525 E0.0135
G1 X14.818 Y-12.960 E0.0135
G1 X15.441 Y-13.378 E0.0135
G1 X16.076 Y-13.777 E0.0135
G1 X16.248 Y-13.878 E0.0036
G1 X16.360 Y-13.765 E0.0029
G1 X16.843 Y-13.243 E0.0128
G1 X17.310 Y-12.706 E0.0128
G1 X17.759 Y-12.155 E0.0128
G1 X18.191 Y-11.590 E0.0128
G1 X18.605 Y-11.011 E0.0128
G1 X19.001 Y-10.420 E0.0128
G1 X19.377 Y-9.817 E0.0128
G1 X19.735 Y-9.202 E0.0128
G1 X20.073 Y-8.576 E0.0128
G1 X20.391 Y-7.940 E0.0128
G1 X20.689 Y-7.294 E0.0128
G1 X20.967 Y-6.639 E0.0128
G1 X21.224 Y-5.976 E0.0128
G1 X21.460 Y-5.305 E0.0128
G1 X21.674 Y-4.627 E0.0128
G1 X21.868 Y-3.942 E0.0128
G1 X22.039 Y-3.253 E0.0128
G1 X22.189 Y-2.557 E0.0128
G1 X22.317 Y-1.858 E0.0128
G1 X22.423 Y-1.154 E0.0128
G1 X22.507 Y-0.448 E0.0128
G1 X22.569 Y0.261 E0.0128
G1 X22.608 Y0.971 E0.0128
G1 X22.625 Y1.682 E0.0128
G1 X22.619 Y2.393 E0.0128
G1 X22.592 Y3.104 E0.0128
G1 X22.541 Y3.813 E0.0128
G1 X22.469 Y4.521 E0.0128
G1 X22.374 Y5.226 E0.0128
G1 X22.258 Y5.927 E0.0128
G1 X22.119 Y6.625 E0.0128
G1 X21.958 Y7.318 E0.0128
G1 X21.776 Y8.005 E0.0128
G1 X21.572 Y8.687 E0.0128
G1 X21.347 Y9.361 E0.0128
G1 X21.101 Y10.028 E0.0128
G1 X20.834 Y10.688 E0.0128
G1 X20.546 Y11.338 E0.0128
G1 X20.238 Y11.979 E0.0128
G1 X19.910 Y12.610 E0.0128
G1 X19.563 Y13.231 E0.0128
G1 X19.205 Y13.825 E0.0125
G1 X18.783 Y13.519 E0.0094
G1 X18.290 Y13.137 E0.0112
G1 X17.809 Y12.739 E0.0112
G1 X17.341 Y12.326 E0.0112
G1 X16.886 Y11.899 E0.0112
G1 X16.446 Y11.459 E0.0112
G1 X16.019 Y11.004 E0.0112
G1 X15.607 Y10.536 E0.0112
G1 X15.209 Y10.055 E0.0112
G1 X14.827 Y9.561 E0.0112
G1 X14.461 Y9.056 E0.0112
G1 X13.889 Y8.213 E0.0183
G1 X-13.763 Y8.213 E0.4966
G1 X-14.341 Y9.051 E0.0183
G1 X-14.716 Y9.558 E0.0113
G1 X-15.106 Y10.054 E0.0113
G1 X-15.513 Y10.536 E0.0113
G1 X-15.934 Y11.005 E0.0113
G1 X-16.370 Y11.461 E0.0113
G1 X-16.820 Y11.903 E0.0113
G1 X-17.285 Y12.330 E0.0113
G1 X-17.759 Y12.739 E0.0113
G1 X-18.249 Y13.136 E0.0113
G1 X-18.752 Y13.517 E0.0113
G1 X-19.199 Y13.833 E0.0098
G1 X-19.563 Y13.229 E0.0127
G1 X-19.911 Y12.607 E0.0128
G1 X-20.240 Y11.974 E0.0128
G1 X-20.548 Y11.332 E0.0128
G1 X-20.837 Y10.680 E0.0128
G1 X-21.104 Y10.019 E0.0128
G1 X-21.350 Y9.350 E0.0128
G1 X-21.576 Y8.673 E0.0128
G1 X-21.780 Y7.990 E0.0128
G1 X-21.962 Y7.301 E0.0128
G1 X-22.122 Y6.606 E0.0128
G1 X-22.261 Y5.907 E0.0128
G1 X-22.377 Y5.203 E0.0128
G1 X-22.471 Y4.497 E0.0128
G1 X-22.543 Y3.788 E0.0128
G1 X-22.592 Y3.076 E0.0128
G1 X-22.619 Y2.364 E0.0128
G1 X-22.624 Y1.651 E0.0128
G1 X-22.606 Y0.938 E0.0128
G1 X-22.565 Y0.227 E0.0128
G1 X-22.503 Y-0.484 E0.0128
G1 X-22.418 Y-1.192 E0.0128
G1 X-22.310 Y-1.896 E0.0128
G1 X-22.181 Y-2.598 E0.0128
G1 X-22.029 Y-3.294 E0.0128
G1 X-21.856 Y-3.986 E0.0128
G1 X-21.660 Y-4.672 E0.0128
G1 X-21.444 Y-5.351 E0.0128
G1 X-21.206 Y-6.023 E0.0128
G1 X-20.947 Y-6.687 E0.0128
G1 X-20.667 Y-7.343 E0.0128
G1 X-20.367 Y-7.989 E0.0128
G1 X-20.046 Y-8.626 E0.0128
G1 X-19.706 Y-9.253 E0.0128
G1 X-19.346 Y-9.868 E0.0128
G1 X-18.965 Y-10.474 E0.0129
G1 X-18.568 Y-11.063 E0.0128
G1 X-18.152 Y-11.642 E0.0128
G1 X-17.717 Y-12.207 E0.0128
G1 X-17.265 Y-12.758 E0.0128
G1 X-16.796 Y-13.295 E0.0128
G1 X-16.310 Y-13.817 E0.0128
G1 X-16.196 Y-13.931 E0.0029
G1 X-16.021 Y-13.826 E0.0037
G1 X-15.389 Y-13.423 E0.0135
G1 X-14.763 Y-12.997 E0.0136
G1 X-14.149 Y-12.554 E0.0136
G1 X-13.550 Y-12.092 E0.0136
G1 X-12.964 Y-11.614 E0.0136
G1 X-12.392 Y-11.118 E0.0136
G1 X-11.835 Y-10.606 E0.0136
G1 X-11.293 Y-10.077 E0.0136
G1 X-10.767 Y-9.533 E0.0136
G1 X-10.032 Y-8.726 E0.0196
; outer perimeter
G1 X-9.820 Y-9.207 F4200
G1 X9.890 Y-9.250 E0.3540 F900
G1 X10.483 Y-9.889 E0.0157
G1 X11.019 Y-10.434 E0.0137
G1 X11.570 Y-10.963 E0.0137
G1 X12.137 Y-11.476 E0.0137
G1 X12.718 Y-11.972 E0.0137
G1 X13.314 Y-12.451 E0.0137
G1 X13.923 Y-12.912 E0.0137
G1 X14.545 Y-13.356 E0.0137
G1 X15.180 Y-13.781 E0.0137
G1 X15.827 Y-14.187 E0.0137
G1 X16.327 Y-14.482 E0.0104
G1 X16.707 Y-14.096 E0.0097
G1 X17.201 Y-13.564 E0.0130
G1 X17.677 Y-13.015 E0.0130
G1 X18.136 Y-12.452 E0.0130
G1 X18.577 Y-11.875 E0.0130
G1 X19.000 Y-11.284 E0.0130
G1 X19.404 Y-10.681 E0.0130
G1 X19.788 Y-10.065 E0.0130
G1 X20.154 Y-9.437 E0.0130
G1 X20.499 Y-8.798 E0.0130
G1 X20.824 Y-8.148 E0.0130
G1 X21.128 Y-7.488 E0.0130
G1 X21.412 Y-6.820 E0.0130
G1 X21.674 Y-6.143 E0.0130
G1 X21.915 Y-5.457 E0.0131
G1 X22.134 Y-4.765 E0.0130
G1 X22.332 Y-4.066 E0.0130
G1 X22.507 Y-3.361 E0.0130
G1 X22.660 Y-2.651 E0.0130
G1 X22.791 Y-1.937 E0.0130
G1 X22.899 Y-1.218 E0.0130
G1 X22.985 Y-0.497 E0.0130
G1 X23.048 Y0.227 E0.0130
G1 X23.088 Y0.952 E0.0130
G1 X23.105 Y1.678 E0.0130
G1 X23.099 Y2.404 E0.0130
G1 X23.071 Y3.130 E0.0131
G1 X23.020 Y3.855 E0.0130
G1 X22.946 Y4.577 E0.0130
G1 X22.849 Y5.297 E0.0130
G1 X22.730 Y6.014 E0.0130
G1 X22.588 Y6.726 E0.0130
G1 X22.424 Y7.433 E0.0130
G1 X22.238 Y8.135 E0.0130
G1 X22.030 Y8.832 E0.0131
G1 X21.800 Y9.520 E0.0130
G1 X21.549 Y10.202 E0.0130
G1 X21.276 Y10.875 E0.0130
G1 X20.982 Y11.539 E0.0131
G1 X20.668 Y12.194 E0.0130
G1 X20.333 Y12.838 E0.0130
G1 X19.978 Y13.472 E0.0131
G1 X19.604 Y14.092 E0.0130
G1 X19.340 Y14.501 E0.0088
G1 X19.012 Y14.279 E0.0071
G1 X18.495 Y13.903 E0.0115
G1 X17.990 Y13.511 E0.0115
G1 X17.497 Y13.104 E0.0115
G1 X17.017 Y12.681 E0.0115
G1 X16.552 Y12.244 E0.0115
G1 X16.102 Y11.793 E0.0114
G1 X15.664 Y11.327 E0.0115
G1 X15.242 Y10.847 E0.0115
G1 X14.834 Y10.355 E0.0115
G1 X14.443 Y9.849 E0.0115
G1 X14.068 Y9.331 E0.0115
G1 X13.634 Y8.693 E0.0139
G1 X-13.511 Y8.693 E0.4875
G1 X-13.951 Y9.330 E0.0139
G1 X-14.334 Y9.850 E0.0116
G1 X-14.734 Y10.357 E0.0116
G1 X-15.150 Y10.851 E0.0116
G1 X-15.582 Y11.332 E0.0116
G1 X-16.028 Y11.799 E0.0116
G1 X-16.490 Y12.251 E0.0116
G1 X-16.965 Y12.688 E0.0116
G1 X-17.451 Y13.108 E0.0115
G1 X-17.953 Y13.514 E0.0116
G1 X-18.468 Y13.904 E0.0116
G1 X-18.996 Y14.277 E0.0116
G1 X-19.338 Y14.504 E0.0074
G1 X-19.602 Y14.094 E0.0088
G1 X-19.978 Y13.470 E0.0131
G1 X-20.334 Y12.835 E0.0131
G1 X-20.669 Y12.189 E0.0131
G1 X-20.985 Y11.533 E0.0131
G1 X-21.279 Y10.867 E0.0131
G1 X-21.552 Y10.192 E0.0131
G1 X-21.803 Y9.509 E0.0131
G1 X-22.034 Y8.818 E0.0131
G1 X-22.242 Y8.120 E0.0131
G1 X-22.428 Y7.416 E0.0131
G1 X-22.592 Y6.707 E0.0131
G1 X-22.733 Y5.993 E0.0131
G1 X-22.852 Y5.274 E0.0131
G1 X-22.948 Y4.553 E0.0131
G1 X-23.021 Y3.828 E0.0131
G1 X-23.072 Y3.102 E0.0131
G1 X-23.099 Y2.374 E0.0131
G1 X-23.104 Y1.646 E0.0131
G1 X-23.085 Y0.918 E0.0131
G1 X-23.044 Y0.192 E0.0131
G1 X-22.980 Y-0.534 E0.0131
G1 X-22.893 Y-1.256 E0.0131
G1 X-22.783 Y-1.976 E0.0131
G1 X-22.651 Y-2.692 E0.0131
G1 X-22.496 Y-3.404 E0.0131
G1 X-22.319 Y-4.110 E0.0131
G1 X-22.120 Y-4.810 E0.0131
G1 X-21.899 Y-5.504 E0.0131
G1 X-21.656 Y-6.190 E0.0131
G1 X-21.391 Y-6.868 E0.0131
G1 X-21.106 Y-7.538 E0.0131
G1 X-20.799 Y-8.198 E0.0131
G1 X-20.471 Y-8.849 E0.0131
G1 X-20.124 Y-9.488 E0.0131
G1 X-19.756 Y-10.117 E0.0131
G1 X-19.367 Y-10.736 E0.0131
G1 X-18.962 Y-11.337 E0.0130
G1 X-18.537 Y-11.928 E0.0131
G1 X-18.093 Y-12.505 E0.0131
G1 X-17.631 Y-13.068 E0.0131
G1 X-17.152 Y-13.616 E0.0131
G1 X-16.656 Y-14.149 E0.0131
G1 X-16.273 Y-14.535 E0.0098
G1 X-15.769 Y-14.235 E0.0105
G1 X-15.125 Y-13.824 E0.0137
G1 X-14.487 Y-13.390 E0.0138
G1 X-13.863 Y-12.939 E0.0138
G1 X-13.251 Y-12.468 E0.0138
G1 X-12.654 Y-11.981 E0.0138
G1 X-12.072 Y-11.476 E0.0138
G1 X-11.504 Y-10.954 E0.0139
G1 X-10.953 Y-10.416 E0.0138
G1 X-10.417 Y-9.861 E0.0138
G1 X-9.820 Y-9.207 E0.0159
; solid layer
G1 X-18.819 Y13.086 F4200
G1 X-19.674 Y12.230 E0.0217 F1440
G1 X-19.896 Y11.803 E0.0086
G1 X-20.200 Y11.171 E0.0126
G1 X-20.314 Y10.912 E0.0051
G1 X-18.434 Y12.792 E0.0478
G1 X-18.059 Y12.488 E0.0087
G1 X-20.792 Y9.755 E0.0694
G1 X-20.988 Y9.223 E0.0102
G1 X-21.159 Y8.709 E0.0097
G1 X-17.693 Y12.175 E0.0880
G1 X-17.540 Y12.043 E0.0036
G1 X-17.335 Y11.855 E0.0050
G1 X-21.448 Y7.741 E0.1045
G1 X-21.589 Y7.209 E0.0099
G1 X-21.675 Y6.835 E0.0069
G1 X-16.984 Y11.526 E0.1191
G1 X-16.643 Y11.192 E0.0086
G1 X-16.642 Y11.190 E0.0000
G1 X-21.855 Y5.976 E0.1324
G1 X-21.883 Y5.838 E0.0025
G1 X-21.995 Y5.158 E0.0124
G1 X-16.310 Y10.843 E0.1444
G1 X-16.216 Y10.745 E0.0024
G1 X-15.986 Y10.488 E0.0062
G1 X-22.097 Y4.377 E0.1552
G1 X-22.160 Y3.754 E0.0112
G1 X-22.169 Y3.626 E0.0023
G1 X-15.669 Y10.126 E0.1651
G1 X-15.404 Y9.811 E0.0074
G1 X-15.361 Y9.756 E0.0013
G1 X-22.215 Y2.902 E0.1741
G1 X-22.235 Y2.355 E0.0098
G1 X-22.236 Y2.201 E0.0028
G1 X-15.061 Y9.376 E0.1822
G1 X-15.021 Y9.326 E0.0012
G1 X-14.772 Y8.987 E0.0076
G1 X-22.236 Y1.522 E0.1896
G1 X-22.222 Y0.954 E0.0102
G1 X-22.217 Y0.863 E0.0016
G1 X-14.490 Y8.590 E0.1963
